!!!!SEGMENT: pl-sa--131-a-iii-31--001_luna-georgius--vesperae-dixit-dominus.krn
!!!cenid: 17xx:489
!!!COM: Luna, Georgius
!!!COM-rismid: pe41010079
!!!CDT:
!!!CNT:
!!!OPR: Vesperae
!!!OTL: Dixit Dominus
!!!OMV: 001
!!!PDT:
!!!AGN: Sacred; Vespers
!!!SMS-siglum: PL-SA
!!!SMS-shelfmark: 131/A III 31
!!!SMS-shelfwork: 001-001 M
!!!SMS-variant:
!!!SMS-altvar:
!!!NIFC-rismid: 1001070694
!!!URL-scan: http://bc.bdsandomierz.pl/dlibra/publication/1488/edition/1456/content
!!!ONB-nifc: UWAGA: części Vesperae: Dixit Dominus, Confitebor, Beatus vir, Laudate pueri, Laudate Dominum, Magnificat
!!!key:
**kern	**dynam	**kern	**dynam	**kern	**dynam	**kern	**text	**kern	**text	**kern	**text	**kern	**kern
*part8	*part8	*part7	*part7	*part6	*part6	*part5	*part5	*part4	*part4	*part3	*part3	*part2	*part1
*staff8	*	*staff7	*	*staff6	*	*staff5	*staff5	*staff4	*staff4	*staff3	*staff3	*staff2	*staff1
*group4	*	*group3	*	*group3	*	*group2	*	*group2	*	*group2	*	*group1	*group1
*Iempty	*	*Ivioln	*	*Ivioln	*	*Iempty	*	*Itenor	*	*Ivox	*	*Itromp	*Itromp
*I"Fondamento	*	*I"Violino Secundo	*	*I"Violino Primo	*	*I"Baſso	*	*I"Tenore	*	*I"Canto	*	*I"Tromba Secunda Ex C.	*I"Tromba Prima ex C:
*I'org	*	*I'Vn II	*	*I'Vn I	*	*I'B	*	*I'T	*	*I'C	*	*I'Tr 2 in C	*I'Tr 1 in C
*clefF4	*	*clefG2	*	*clefG2	*	*clefF4	*	*clefC4	*	*clefC1	*	*clefG2	*clefG2
*k[]	*	*k[]	*	*k[]	*	*k[]	*	*k[]	*	*k[]	*	*k[]	*k[]
*C:	*	*C:	*	*C:	*	*C:	*	*C:	*	*C:	*	*C:	*C:
*M4/4	*	*M4/4	*	*M4/4	*	*M4/4	*	*M4/4	*	*M4/4	*	*M4/4	*M4/4
*met(c)	*	*met(c)	*	*met(c)	*	*met(c)	*	*met(c)	*	*met(c)	*	*met(c)	*met(c)
=1	=1	=1	=1	=1	=1	=1	=1	=1	=1	=1	=1	=1	=1
!	!	!	!	!	!	!	!	!	!	!	!	!	!LO:TX:a:B:t=Allo
!LO:TX:a:B:t=Allo'	!	!LO:TX:a:B:t=Allo'	!	!LO:TX:a:B:t=Allo'	!	!LO:TX:a:B:t=Allo	!	!LO:TX:a:B:t=Allo'	!	!LO:TX:a:B:t=Allo'	!	!LO:TX:a:B:t=Allo	!LO:TX:a:B:t=Allegro
!LO:TX:b:t=Dixit	!	!LO:TX:b:t=Dixit	!	!	!	!	!	!	!	!	!	!LO:TX:b:t=Dixit	!LO:TX:b:t=Dixit
4C\	.	4ee\	.	8ccc\L	.	00r	.	00r	.	00r	.	4cc\	4ee\
.	.	.	.	8cc\	.	.	.	.	.	.	.	.	.
4G\	.	4dd\	.	8dd\	.	.	.	.	.	.	.	4g\	4dd\
.	.	.	.	8bb\J	.	.	.	.	.	.	.	.	.
4C\	.	4ee\	.	4ccc\	.	.	.	.	.	.	.	4cc\	4ee\
8r	.	8r	.	8r	.	.	.	.	.	.	.	8r	8r
8C/	.	8e/	.	8g/	.	.	.	.	.	.	.	8ee\	8gg\
=2	=2	=2	=2	=2	=2	=2	=2	=2	=2	=2	=2	=2	=2
*	*	*	*	*	*	*	*	*	*	*	*	*2\right	*2\right
8C/L	.	4f/	.	4a\	.	.	.	.	.	.	.	2ff\	2aa\
8C/	.	.	.	.	.	.	.	.	.	.	.	.	.
8C/	.	4a\	.	4cc\	.	.	.	.	.	.	.	.	.
8C/J	.	.	.	.	.	.	.	.	.	.	.	.	.
8C/L	.	4cc\	.	4ff\	.	.	.	.	.	.	.	4ff\	4aa\
8C/	.	.	.	.	.	.	.	.	.	.	.	.	.
8C/	.	4ff\	.	4aa\	.	.	.	.	.	.	.	8ff\L	8aa\L
8C/J	.	.	.	.	.	.	.	.	.	.	.	8ff\J	8aa\J
=3	=3	=3	=3	=3	=3	=3	=3	=3	=3	=3	=3	=3	=3
8C/L	.	4e/	.	4g/	.	.	.	.	.	.	.	2ee\	2gg\
8C/	.	.	.	.	.	.	.	.	.	.	.	.	.
8C/	.	4g/	.	4cc\	.	.	.	.	.	.	.	.	.
8C/J	.	.	.	.	.	.	.	.	.	.	.	.	.
8C/L	.	4cc\	.	4ee\	.	.	.	.	.	.	.	4ee\	4gg\
8C/	.	.	.	.	.	.	.	.	.	.	.	.	.
8C/	.	4ee\	.	4gg\	.	.	.	.	.	.	.	8ee\L	8gg\L
8C/J	.	.	.	.	.	.	.	.	.	.	.	8ee\J	8gg\J
=4	=4	=4	=4	=4	=4	=4	=4	=4	=4	=4	=4	=4	=4
8GG/L	.	4d/	.	4f/	.	.	.	.	.	.	.	2dd\	2ff\
8GG/	.	.	.	.	.	.	.	.	.	.	.	.	.
8GG/	.	4f/	.	4b\	.	.	.	.	.	.	.	.	.
8GG/J	.	.	.	.	.	.	.	.	.	.	.	.	.
8GG/L	.	4b\	.	4dd\	.	.	.	.	.	.	.	4dd\	4ff\
8GG/	.	.	.	.	.	.	.	.	.	.	.	.	.
8GG/	.	4dd\	.	4ff\	.	.	.	.	.	.	.	8dd\L	8ff\L
8GG/J	.	.	.	.	.	.	.	.	.	.	.	8dd\J	8ff\J
=5	=5	=5	=5	=5	=5	=5	=5	=5	=5	=5	=5	=5	=5
*	*	*Xtuplet	*	*	*	*	*	*	*	*	*	*	*
8C\L	.	(20cc\LL	.	(16ee\LL	.	0r	.	0r	.	0r	.	4cc\	4ee\
.	.	20dd\)	.	.	.	.	.	.	.	.	.	.	.
.	.	.	.	16cc'\)	.	.	.	.	.	.	.	.	.
*	*	*	*	*	*	*	*	*	*	*	*	*	*
.	.	20ee\	.	.	.	.	.	.	.	.	.	.	.
8C\	.	.	.	16ccc\	.	.	.	.	.	.	.	.	.
.	.	20ee'\	.	.	.	.	.	.	.	.	.	.	.
.	.	.	.	16ccc\JJ	.	.	.	.	.	.	.	.	.
.	.	20ee'\JJ	.	.	.	.	.	.	.	.	.	.	.
!	!	!	!	!LO:TX:a:t=t	!	!	!	!	!	!	!	!	!
8E\	.	4ee\	.	4ccc\	.	.	.	.	.	.	.	8r	8r
8F\J	.	.	.	.	.	.	.	.	.	.	.	16cc\LL	16ee\LL
.	.	.	.	.	.	.	.	.	.	.	.	16cc\JJ	16ee\JJ
*	*	*	*	*Xtuplet	*	*	*	*	*	*	*	*	*
!LO:TX:a:t=problem:mixed beam	!	!	!	!	!	!	!	!	!	!	!	!	!
8G\L	.	20dd'\LL	.	(24bb\LL	.	.	.	.	.	.	.	4g/	4dd\
.	.	.	.	24ccc\	.	.	.	.	.	.	.	.	.
.	.	(20ee\	.	.	.	.	.	.	.	.	.	.	.
.	.	.	.	24ccc\JJ)	.	.	.	.	.	.	.	.	.
.	.	20ff\)	.	.	.	.	.	.	.	.	.	.	.
8GG/	.	.	.	16ff'\LL	.	.	.	.	.	.	.	.	.
.	.	20dd'\	.	.	.	.	.	.	.	.	.	.	.
.	.	.	.	16ff'\JJ	.	.	.	.	.	.	.	.	.
.	.	20dd'\JJ	.	.	.	.	.	.	.	.	.	.	.
!	!	!	!	!LO:TX:a:t=t	!	!	!	!	!	!	!	!	!
8AA/	.	4dd\	.	4ff\	.	.	.	.	.	.	.	8r	8r
8BB/J	.	.	.	.	.	.	.	.	.	.	.	16g/LL	16dd\LL
.	.	.	.	.	.	.	.	.	.	.	.	16g/JJ	16dd\JJ
=6	=6	=6	=6	=6	=6	=6	=6	=6	=6	=6	=6	=6	=6
8C\L	.	(20cc\LL	.	(24ee\LL	.	.	.	.	.	.	.	4cc\	4ee\
.	.	.	.	24dd\	.	.	.	.	.	.	.	.	.
.	.	20dd\	.	.	.	.	.	.	.	.	.	.	.
.	.	.	.	24cc\)	.	.	.	.	.	.	.	.	.
.	.	20ee\)	.	.	.	.	.	.	.	.	.	.	.
8C\	.	.	.	16ccc\	.	.	.	.	.	.	.	.	.
.	.	20ee'\	.	.	.	.	.	.	.	.	.	.	.
.	.	.	.	16ccc\JJ	.	.	.	.	.	.	.	.	.
.	.	20ee'\JJ	.	.	.	.	.	.	.	.	.	.	.
8E\	.	4ee\	.	4ccc\	.	.	.	.	.	.	.	8r	8r
8F\J	.	.	.	.	.	.	.	.	.	.	.	16cc\LL	16ee\LL
.	.	.	.	.	.	.	.	.	.	.	.	16cc\JJ	16ee\JJ
!LO:TX:a:t=problem:mixed beam	!	!	!	!	!	!	!	!	!	!	!	!	!
8G\L	.	(20dd\LL	.	24bb\LL	.	.	.	.	.	.	.	4g/	4dd\
.	.	.	.	24ccc\	.	.	.	.	.	.	.	.	.
.	.	20ee\)	.	.	.	.	.	.	.	.	.	.	.
.	.	.	.	24ccc\JJ	.	.	.	.	.	.	.	.	.
.	.	20ff\	.	.	.	.	.	.	.	.	.	.	.
8GG/	.	.	.	16ff\LL	.	.	.	.	.	.	.	.	.
.	.	20ee'\	.	.	.	.	.	.	.	.	.	.	.
.	.	.	.	16ff\JJ	.	.	.	.	.	.	.	.	.
.	.	20dd'\JJ	.	.	.	.	.	.	.	.	.	.	.
!	!	!	!	!LO:TX:a:t=t	!	!	!	!	!	!	!	!	!
8AA/	.	4dd\	.	4ff\	.	.	.	.	.	.	.	8r	8r
8BB/J	.	.	.	.	.	.	.	.	.	.	.	16g/LL	16dd\LL
.	.	.	.	.	.	.	.	.	.	.	.	16g/JJ	16dd\JJ
=7	=7	=7	=7	=7	=7	=7	=7	=7	=7	=7	=7	=7	=7
!LO:TX:a:t=problem:mixed beam	!	!	!	!	!	!	!	!	!	!	!	!	!
8C\L	.	4cc\	.	8ee\L	.	1r	.	1r	.	1r	.	4cc\	4ee\
8E\	.	.	.	8ccc\J	.	.	.	.	.	.	.	.	.
8G\	.	8dd\L	.	(16bb\LL	.	.	.	.	.	.	.	8r	8r
.	.	.	.	16aa\)	.	.	.	.	.	.	.	.	.
8GG/J	.	8b\J	.	(16gg\	.	.	.	.	.	.	.	8g\	8dd\
.	.	.	.	16ff\JJ)	.	.	.	.	.	.	.	.	.
!LO:TX:a:t=problem:mixed beam	!	!	!	!	!	!	!	!	!	!	!	!	!
8C\L	.	8cc\L	.	8ee\L	.	.	.	.	.	.	.	8cc\L	8ee\L
8E\	.	8ee\	.	8ccc\	.	.	.	.	.	.	.	8cc\	8ee\
8G\	.	8b\	.	8dd\	.	.	.	.	.	.	.	8g\	8dd\
8GG/J	.	8dd\J	.	8bb\J	.	.	.	.	.	.	.	8g\J	8dd\J
=8	=8	=8	=8	=8	=8	=8	=8	=8	=8	=8	=8	=8	=8
4C\	.	4ee\	.	8ccc\L	.	8c\	Di-	8c\	Di-	8ee\	Di-	4cc\	4ee\
.	.	.	.	8cc\	.	8c\	-xit	8c\	-xit	8ee\	-xit	.	.
4G\	.	4dd\	.	8dd\	.	8G\	Do-	8B\	Do-	8dd\	Do-	4g\	4dd\
.	.	.	.	8bb\J	.	8G\	-mi-	8B\	-mi-	8dd\	-mi-	.	.
4C\	.	4ee\	.	4ccc\	.	4C/	-nuſ	4c\	-nuſ	4ee\	-nuſ	4cc\	4ee\
8r	.	8r	.	8r	.	4r	.	8r	.	8r	.	8r	8r
8C/	.	8e/	.	8g/	.	.	.	8B\	Do-	8ee\	Do-	8ee\	8gg\
!LO:LB:g=original	!	!LO:LB:g=original	!	!LO:LB:g=original	!	!	!	!	!	!	!	!	!
=9	=9	=9	=9	=9	=9	=9	=9	=9	=9	=9	=9	=9	=9
8C/L	.	4f/	.	4a\	.	4c\	Do-	4A\	.	4ff\	.	2ff\	2aa\
8C/	.	.	.	.	.	.	.	.	.	.	.	.	.
8C/	.	4a/	.	4cc\	.	8c\	-mi-	8A\	-mi-	8ff\	-mi-	.	.
8C/J	.	.	.	.	.	8c\	-no	8A\	-no	8ff\	-no	.	.
8C/L	.	4cc/	.	4ff\	.	4c\	me-	4A\	me-	4ff\	me-	4ff\	4aa\
8C/	.	.	.	.	.	.	.	.	.	.	.	.	.
8C/	.	4ff\	.	4aa\	.	4c\	-o	4A\	-o	4ff\	-o	8ff\L	8aa\L
8C/J	.	.	.	.	.	.	.	.	.	.	.	8ff\J	8aa\J
!	!	!	!	!	!	!	!	!	!	!	!	!LO:LB:g=original	!LO:LB:g=original
=10	=10	=10	=10	=10	=10	=10	=10	=10	=10	=10	=10	=10	=10
8C/L	.	4e/	.	4g/	.	4c\	Se-	4G/	Se-	4ee\	Se-	2ee\	2gg\
8C/	.	.	.	.	.	.	.	.	.	.	.	.	.
8C/	.	4g/	.	4cc\	.	8C/	-de	8G/	-de	8ee\	-de	.	.
8C/J	.	.	.	.	.	8C/	a	8G/	a	8ee\	a	.	.
8C/L	.	4cc\	.	4ee\	.	4C/	dex-	4G/	dex-	4ee\	dex-	4ee\	4gg\
8C/	.	.	.	.	.	.	.	.	.	.	.	.	.
8C/	.	4ee\	.	4gg\	.	4C/	-triſ	4G/	-triſ	4ee\	-triſ	8ee\L	8gg\L
8C/J	.	.	.	.	.	.	.	.	.	.	.	8ee\J	8gg\J
=11	=11	=11	=11	=11	=11	=11	=11	=11	=11	=11	=11	=11	=11
8GG/L	.	4d/	.	4f/	.	1G	me-	1F	me-	1dd	me-	2dd\	2ff\
8GG/	.	.	.	.	.	.	.	.	.	.	.	.	.
8GG/	.	4f/	.	4b\	.	.	.	.	.	.	.	.	.
8GG/J	.	.	.	.	.	.	.	.	.	.	.	.	.
8GG/L	.	4b\	.	4dd\	.	.	.	.	.	.	.	4dd\	4ff\
8GG/	.	.	.	.	.	.	.	.	.	.	.	.	.
8GG/	.	4dd\	.	4ff\	.	.	.	.	.	.	.	8dd\L	8ff\L
8GG/J	.	.	.	.	.	.	.	.	.	.	.	8dd\J	8ff\J
=12	=12	=12	=12	=12	=12	=12	=12	=12	=12	=12	=12	=12	=12
4C\	.	4cc\	.	4ee\	.	4C\	-iſ	4E/	-iſ	4cc\	-iſ	4cc\	4ee\
8C\L	.	8ee\L	.	8ccc\L	.	8C\	do-	8G/	do-	8ee\	do-	8cc\L	8ee\L
8E\J	.	8ee\J	.	8ccc\	.	8E\	-nec	8G/	-nec	8ee\	-nec	8cc\J	8ee\J
!LO:TX:a:t=problem:mixed beam	!	!	!	!	!	!	!	!	!	!	!	!	!
8G\L	.	8dd\L	.	8bb\	.	8G\	po-	8B\	po-	8dd\	po-	8g\L	8dd\L
8GG/J	.	8dd\J	.	8bb\J	.	8G\	-nam	8B\	-nam	8dd\	-nam	8g\	8dd\
16C\LL	.	16ee\LL	.	16ccc\LL	.	16C\	i-	16G\	i-	16ee\	i-	8cc\	8ee\
16D\	.	16ee\	.	16ccc\	.	16D\	-ni-	16G\	-ni-	16ee\	-ni-	.	.
16E\	.	16ee\	.	16ccc\	.	16E\	-mi-	16G\	-mi-	16ee\	-mi-	8cc\J	8ee\J
16F\JJ	.	16ee\JJ	.	16ccc\JJ	.	16F\	-coſ	16G\	-cos	16ee\	-cos	.	.
!	!	!	!	!	!	!	!	!LO:LB:g=original	!	!	!	!	!
=13	=13	=13	=13	=13	=13	=13	=13	=13	=13	=13	=13	=13	=13
8G\L	.	8dd\L	.	8bb\L	.	8G\	tu-	8B\	tu-	8dd\	tu-	8g/L	8dd\L
8G\J	.	8dd\J	.	8bb\	.	8G\	-oſ	8B\	-oſ	8dd\	-oſ	8g/J	8dd\J
4B\	.	4g/	.	8gg\	.	4d\	sca-	4G/	sca-	4dd\	sca-	8r	8r
.	.	.	.	8dd\J	.	.	.	.	.	.	.	8g/	8dd\
!	!	!	!	!	!	!LO:LB:g=original	!	!	!	!	!	!	!
4c\	.	8g\L	.	8ee\L	.	4c\	-bel-	4G/	-bel-	4ee\	-bel-	4cc\	4ee\
.	.	8cc\J	.	8gg\	.	.	.	.	.	.	.	.	.
4d\	.	4a/	.	8ff#X\	.	4d\	-lum	4c\	-lum	4ff#X\	-lum	4dd\	4dd\
.	.	.	.	8aa\J	.	.	.	.	.	.	.	.	.
!	!	!	!	!	!	!	!	!	!	!LO:LB:g=original	!	!	!
=14	=14	=14	=14	=14	=14	=14	=14	=14	=14	=14	=14	=14	=14
8G\L	.	8b\L	.	8gg\L	.	8G\L	pe-	8B\L	pe-	8gg\L	pe-	4g/	4dd\
8A\	.	8cc\	.	16ff#X\L	.	8A\J	.	8c\J	.	16ff#X\L	.	.	.
.	.	.	.	16ee\JJ	.	.	.	.	.	16ee\JJ	.	.	.
8B\	.	8dd\	.	8dd\L	.	8B\	-dum	8d\	-dum	8dd\	-dum	4r	4r
8c\J	.	8ee\J	.	8cc\J	.	8c\	tu-	8A\	tu-	8cc\	tu-	.	.
4d\	.	4g/	.	4b\	.	4d\	-o-	4G/	-o-	4b\	-o-	8r	8r
.	.	.	.	.	.	.	.	.	.	.	.	16dd\LL	16dd\LL
.	.	.	.	.	.	.	.	.	.	.	.	16dd\JJ	16dd\JJ
!	!	!	!	!LO:TX:a:t=t	!	!	!	!LO:TX:a:t=t	!	!LO:TX:a:t=t	!	!	!
4D\	.	4f#X/	.	4a\	.	4D\	.	4F#X/	.	4a\	.	8dd\L	8dd\L
.	.	.	.	.	.	.	.	.	.	.	.	8dd\J	8dd\J
=15	=15	=15	=15	=15	=15	=15	=15	=15	=15	=15	=15	=15	=15
!	!	!	!	!LO:TX:a:t=problem:mixed beam	!	!	!	!	!	!	!	!	!
4G\	.	4g/	.	8g/L	.	4GG/	-rum	4G/	-rum	4g\	-rum	4g/	4dd\
.	.	.	.	8dd\J	.	.	.	.	.	.	.	.	.
.	.	.	.	8qqcc/	.	.	.	.	.	.	.	.	.
8r	.	8r	.	8b/L	.	4r	.	4r	.	4r	.	4r	4r
8GG/	.	8b\	.	(16a/L	.	.	.	.	.	.	.	.	.
.	.	.	.	16g/JJ)	.	.	.	.	.	.	.	.	.
4C/	.	4g/	.	4ee\	.	2r	.	2r	.	2r	.	4r	4r
!	!	!	!	!LO:TX:a:t=t	!	!	!	!	!	!	!	!	!
4D/	.	4cc\	.	4ff#X\	.	.	.	.	.	.	.	8r	8r
.	.	.	.	.	.	.	.	.	.	.	.	16dd\LL	16dd\LL
.	.	.	.	.	.	.	.	.	.	.	.	16dd\JJ	16dd\JJ
=16	=16	=16	=16	=16	=16	=16	=16	=16	=16	=16	=16	=16	=16
4GG/	.	4b\	.	8gg\L	.	00r	.	1r	.	00r	.	4g/	4dd\
.	.	.	.	8dd\J	.	.	.	.	.	.	.	.	.
.	.	.	.	8qqcc/	.	.	.	.	.	.	.	.	.
8r	.	8r	.	8b/L	.	.	.	.	.	.	.	4r	4r
8GG/	.	8b\	.	16a/L	.	.	.	.	.	.	.	.	.
.	.	.	.	16g/JJ	.	.	.	.	.	.	.	.	.
4C/	.	4g/	.	4ee\	.	.	.	.	.	.	.	4r	4r
.	.	.	.	8qqg/	.	.	.	.	.	.	.	.	.
4D/	.	4a/	.	4f#X/	.	.	.	.	.	.	.	8r	8r
.	.	.	.	.	.	.	.	.	.	.	.	16dd\LL	16dd\LL
.	.	.	.	.	.	.	.	.	.	.	.	16dd\JJ	16dd\JJ
=17	=17	=17	=17	=17	=17	=17	=17	=17	=17	=17	=17	=17	=17
!	!	!	!	!LO:TX:a:t=problem:mixed beam	!LO:DY:a	!	!	!	!	!	!	!	!
!	!	!	!	!	!LO:DY:t=piano	!	!	!	!	!	!	!	!
4GG/	.	4b\	.	8g/L	p	.	.	8r	.	.	.	4g/	4dd\
!	!	!	!	!	!	!	!	!LO:TX:a:i:t=Solo	!	!	!	!	!
.	.	.	.	8dd\J	.	.	.	8d\	Vir-	.	.	.	.
.	.	.	.	8qqcc/	.	.	.	8qqc/	.	.	.	.	.
8r	p	8r	p	8b\L	.	.	.	8B\	-gam	.	.	4r	4r
!	!LO:DY:t=pia	!	!LO:DY:t=pia	!	!	!	!	!	!	!	!	!	!
!	!LO:DY:a	!	!LO:DY:a	!	!	!	!	!	!	!	!	!	!
8G\	p	8b\	p	16a\L	.	.	.	16A/LL	vir-	.	.	.	.
.	.	.	.	16g\JJ	.	.	.	16G/JJ	.	.	.	.	.
4C/	.	4g/	.	4ee\	.	.	.	4e\	-tu-	.	.	2r	2r
!	!	!	!	!LO:TX:a:t=t	!	!	!	!LO:TX:a:t=t	!	!	!	!	!
4D/	.	4cc\	.	4ff#X\	.	.	.	4f#X\	.	.	.	.	.
!LO:LB:g=original	!	!	!	!	!	!	!	!	!	!	!	!	!
=18	=18	=18	=18	=18	=18	=18	=18	=18	=18	=18	=18	=18	=18
!	!	!	!	!	!	!	!	!	!	!	!	!	!LO:N:vis=00
4GG/	.	4b\	.	8gg\L	.	.	.	8g\	-tiſ	.	.	00r	00r
.	.	.	.	8dd\J	.	.	.	8d\	vir-	.	.	.	.
.	.	.	.	8qqcc/	.	.	.	8qqc/	.	.	.	.	.
8r	.	8r	.	8b\L	.	.	.	8B\	-tu-	.	.	.	.
8GG/	.	8b\	.	(16a\L	.	.	.	16A/LL	-tiſ	.	.	.	.
.	.	.	.	16g'\JJ)	.	.	.	16G/JJ	.	.	.	.	.
!	!	!	!	!LO:LB:g=original	!	!	!	!	!	!	!	!	!
4C/	.	4g/	.	4ee\	.	.	.	4e\	tu-	.	.	.	.
.	.	.	.	8qqg/	.	.	.	8qqG/	.	.	.	.	.
4D/	.	4a/	.	4f#X/	.	.	.	4F#X/	.	.	.	.	.
!	!	!LO:LB:g=original	!	!	!	!	!	!	!	!	!	!	!
=19	=19	=19	=19	=19	=19	=19	=19	=19	=19	=19	=19	=19	=19
!LO:TX:a:t=problem:mixed beam	!	!	!	!LO:TX:a:t=problem:mixed beam	!	!	!	!	!	!	!	!	!
8GG/L	.	8b\L	.	8g/L	.	.	.	8G/	-ae	.	.	.	.
8G\	.	8b\	.	8dd\	.	.	.	8G/	e-	.	.	.	.
8G\	.	8b\	.	8dd\	.	.	.	8B\	-mit-	.	.	.	.
8G\J	.	8b\J	.	8dd\J	.	.	.	8d\	-tet	.	.	.	.
4G#X\	.	4dd\	.	4ffn\	.	.	.	8fn\	Do-	.	.	.	.
.	.	.	.	.	.	.	.	8f\	-mi-	.	.	.	.
!	!	!	!	!	!	!	!	!LO:LB:g=original	!	!	!	!	!
4E\	.	(8cc\L	.	(8ee\L	.	.	.	8e\	-nuſ	.	.	.	.
.	.	8b\J)	.	8dd\J)	.	.	.	8d\	ex	.	.	.	.
=20	=20	=20	=20	=20	=20	=20	=20	=20	=20	=20	=20	=20	=20
!LO:TX:a:t=problem:mixed beam	!	!	!	!	!	!	!	!	!	!	!	!	!
.	.	8qqb/	.	8qqdd/	.	.	.	8qqd/	.	.	.	.	.
8A\L	.	4a/	.	4cc\	.	00r	.	4c\	Si-	00r	.	.	.
8AA/J	.	.	.	.	.	.	.	.	.	.	.	.	.
4E\	.	4g#X/	.	4b\	.	.	.	4B\	-on	.	.	.	.
8AA/L	.	4c/	.	4a\	.	.	.	4A\	Do-	.	.	.	.
8AA/	.	.	.	.	.	.	.	.	.	.	.	.	.
8AA/	.	4e/	.	4cc\	.	.	.	4c\	-mi-	.	.	.	.
8AA/J	.	.	.	.	.	.	.	.	.	.	.	.	.
=21	=21	=21	=21	=21	=21	=21	=21	=21	=21	=21	=21	=21	=21
.	.	.	.	8qqb/	.	.	.	8qqB/	.	.	.	.	.
8AA/L	.	8d/L	.	16a/LL	.	.	.	16A\LL	-na-	.	.	.	.
.	.	.	.	16g#X/JJ	.	.	.	16G#X\JJ	.	.	.	.	.
.	.	.	.	8qqg#/	.	.	.	8qqG#/	.	.	.	.	.
8AA/	.	16c/L	.	4.a/	.	.	.	4.A/	-re	.	.	.	.
.	.	16B/JJ	.	.	.	.	.	.	.	.	.	.	.
8AA/	.	4c/	.	.	.	.	.	.	.	.	.	.	.
8AA/J	.	.	.	.	.	.	.	.	.	.	.	.	.
8AA/L	.	4cc\	.	4ee\	.	.	.	4e\	in-	.	.	.	.
8AA/	.	.	.	.	.	.	.	.	.	.	.	.	.
.	.	.	.	8qqdd/	.	.	.	8qqd/	.	.	.	.	.
8AA/	.	8e/L	.	(8cc\L	.	.	.	8c\L	.	.	.	.	.
8AA/J	.	8d/J	.	8b\J)	.	.	.	8B\J	.	.	.	.	.
=22	=22	=22	=22	=22	=22	=22	=22	=22	=22	=22	=22	=22	=22
.	.	8qqd/	.	8qqb/	.	.	.	.	.	.	.	.	.
8AA/L	.	16c/LL	.	16a/LL	.	.	.	16A/	-me-	.	.	0r	0r
.	.	16B/JJ	.	16g#X/JJ	.	.	.	16G#X/	-di-	.	.	.	.
.	.	8qqB/	.	8qqg#/	.	.	.	.	.	.	.	.	.
8AA/	.	4.c/	.	4.a/	.	.	.	4.A/	-o	.	.	.	.
8AA/	.	.	.	.	.	.	.	.	.	.	.	.	.
8AA/J	.	.	.	.	.	.	.	.	.	.	.	.	.
8E\L	.	4b\	.	4dd\	.	.	.	4d\	i-	.	.	.	.
8B\	.	.	.	.	.	.	.	.	.	.	.	.	.
8G#X\	.	8b\L	.	8dd\L	.	.	.	8d\	-ni-	.	.	.	.
8F\J	.	8b\J	.	8dd\J	.	.	.	8d\	-mi-	.	.	.	.
=23	=23	=23	=23	=23	=23	=23	=23	=23	=23	=23	=23	=23	=23
4E\	.	8b\L	.	8dd\L	.	.	.	8d\L	-co-	.	.	.	.
.	.	8dd\	.	8ff\	.	.	.	8f\J	.	.	.	.	.
8r	.	8cc\	.	8ee\	.	.	.	8e\	-rum	.	.	.	.
8G#X\	.	8b\J	.	8dd\J	.	.	.	8d\	tu-	.	.	.	.
8A\L	.	4a/	.	4cc\	.	.	.	4c\	-o-	.	.	.	.
8C\	.	.	.	.	.	.	.	.	.	.	.	.	.
!	!	!LO:TX:a:t=t	!	!LO:TX:a:t=t	!	!	!	!LO:TX:a:t=t	!	!	!	!	!
8D\	.	4g#X/	.	4b\	.	.	.	4B\	.	.	.	.	.
8E\J	.	.	.	.	.	.	.	.	.	.	.	.	.
=24	=24	=24	=24	=24	=24	=24	=24	=24	=24	=24	=24	=24	=24
!LO:TX:a:t=problem:mixed beam	!	!	!	!	!	!	!	!	!	!	!	!	!
8AA/L	.	8a\L	.	8a\L	.	8r	.	8A\	-rum	8r	.	4r	4r
8AA/	.	8a\	.	8cc\	.	8A\	Te-	8A\	te	8cc\	Te-	.	.
8E\	.	8g#X\	.	8b\	.	8E\	-cum	8G#X\	-cum	8b\	-cum	8r	8r
8EE/J	.	8b\J	.	8dd\J	.	8E\	prin-	8B\	prin-	8dd\	prin-	16e/LL	16e/LL
.	.	.	.	.	.	.	.	.	.	.	.	16e/JJ	16e/JJ
!LO:TX:a:t=problem:mixed beam	!	!	!	!	!	!	!	!	!	!	!	!	!
8AA/L	.	8a\L	.	8cc\L	.	(4AA/	-ci-	(4A\	-ci-	(4cc\	-ci-	4e/	4e/
8AA/	.	8cc\	.	8aa\	.	.	.	.	.	.	.	.	.
8E\	.	8b\	.	8ff#X\	.	8E\)	.	8G#X\)	.	8b\)	.	8r	8r
8EE/J	.	8dd\J	.	8bb\J	.	8E\	-pi-	8B\	-pi-	8dd\	-pi-	16e/LL	16e/LL
.	.	.	.	.	.	.	.	.	.	.	.	16e/JJ	16e/JJ
!	!	!	!	!	!	!	!	!	!	!	!	!LO:LB:g=original	!LO:LB:g=original
=25	=25	=25	=25	=25	=25	=25	=25	=25	=25	=25	=25	=25	=25
8AA\L	.	8cc\L	.	8aa\L	.	8AA/	-um	8A\	-um	8cc\	-um	4e/	4e/
!LO:TX:a:t=problem:mixed beam	!	!	!	!	!	!	!	!	!	!	!	!	!
8C\	.	8cc\	.	8ee\	.	8c\	in	8c\	in	8ee\	in	.	.
!	!	!	!	!	!	!	!	!LO:LB:g=original	!	!	!	!	!
8G\	.	8b\	.	8dd\	.	8G\	di-	8B\	di-	8dd\	di-	4r	4r
8GG/J	.	8dd\J	.	8ff\J	.	16G\	-e	16d\	-e	16ff\	-e	.	.
.	.	.	.	.	.	16G\	vir-	16d\	vir-	16ff\	vir-	.	.
!LO:TX:a:t=problem:mixed beam	!	!	!	!	!	!	!	!	!	!	!	!	!
8C\L	.	8cc\L	.	8ee\L	.	8C\	-tu-	8c\	-tu-	8ee\	-tu-	8r	8r
8C\	.	8ee\	.	8ccc\	.	8C\	-tiſ	8c\	-tiſ	8ee\	-tiſ	8cc\L	8ee\L
!	!	!	!	!	!	!LO:TX:a:t=problem:mixed beam	!	!	!	!	!	!	!
8G\	.	8dd\	.	8bb\	.	8G\L	-tu-	8B\L	-tu-	8dd\L	-tu-	8g\	8dd\
8GG/J	.	8ff\J	.	8ddd\J	.	8GG/J	.	8d\J	.	8ee\J	.	8dd\J	8ff\J
=26	=26	=26	=26	=26	=26	=26	=26	=26	=26	=26	=26	=26	=26
8C\L	.	8ee\L	.	8ccc\L	.	8C\	-ae	8c\	-ae	8ee\	-ae	8cc\L	8ee\L
8C\J	.	8ee\J	.	8ccc\J	.	8C\	vir-	8G\	vir-	8ee\	vir-	8cc\J	8ee\J
16C\LL	.	8ee\L	.	8ccc\L	.	16C\LL	-tu-	8G\	-tu-	8ee\	-tu-	8cc\L	8ee\L
16D\	.	.	.	.	.	16D\JJ	.	.	.	.	.	.	.
16E\	.	16ee\L	.	16ccc\L	.	16E\LL	-tiſ	8c\	-tiſ	8ee\	-tiſ	16cc\L	16ee\L
16F\JJ	.	16ee\JJ	.	16ccc\JJ	.	16F\JJ	.	.	.	.	.	16cc\JJ	16ee\JJ
!LO:LB:g=original	!	!	!	!	!	!	!	!	!	!	!	!	!
!LO:TX:a:t=problem:mixed beam	!	!	!	!LO:LB:g=original	!	!	!	!	!	!	!	!	!
8G\L	.	8dd\L	.	8bb\L	.	8G\	tu-	8B\	tu-	8dd\	tu-	8g\L	8dd\L
8GG/J	.	8dd\J	.	8bb\J	.	8GG/	-ae	8B\	-ae	8dd\	-ae	8g\J	8dd\J
4r	.	8r	.	8r	.	4r	.	8r	.	8r	.	4r	4r
.	.	8gg\	.	8gg\	.	.	.	8g\	in	8gg\	in	.	.
!	!	!	!	!	!	!LO:LB:g=original	!	!	!	!	!	!	!
=27	=27	=27	=27	=27	=27	=27	=27	=27	=27	=27	=27	=27	=27
1GG	.	8gg\L	.	4aa\	.	1r	.	8g\L	splen-	4aa\	splen-	1r	1r
.	.	16ff\L	.	.	.	.	.	16f\L	.	.	.	.	.
.	.	16ee\JJ	.	.	.	.	.	16e\JJ	.	.	.	.	.
.	.	4ff\	.	8aa\L	.	.	.	4f\	-do-	8aa\	-do-	.	.
.	.	.	.	16gg\L	.	.	.	.	.	16gg\LL	-ri-	.	.
.	.	.	.	16ff\JJ	.	.	.	.	.	16ff\JJ	.	.	.
!	!	!LO:LB:g=original	!	!	!	!	!	!	!	!LO:LB:g=original	!	!	!
.	.	8ff\L	.	4gg\	.	.	.	8f\L	-ri-	4gg\	-buſ	.	.
.	.	16ee\L	.	.	.	.	.	16e\L	.	.	.	.	.
.	.	16dd\JJ	.	.	.	.	.	16d\JJ	.	.	.	.	.
.	.	4ee\	.	8gg\L	.	.	.	8e\	-buſ	8gg\L	san-	.	.
.	.	.	.	16ff\L	.	.	.	8d\	san	16ff\L	.	.	.
.	.	.	.	16ee\JJ	.	.	.	.	.	16ee\JJ	.	.	.
=28	=28	=28	=28	=28	=28	=28	=28	=28	=28	=28	=28	=28	=28
2GG/	.	8ee\L	.	4ff\	.	2r	.	8e\L	-cto-	4ff\	-cto-	2r	2r
.	.	16dd\L	.	.	.	.	.	16d\L	.	.	.	.	.
.	.	16cc\JJ	.	.	.	.	.	16c\JJ	.	.	.	.	.
.	.	4dd\	.	8ff\L	.	.	.	4d\	.	8ff\L	.	.	.
.	.	.	.	16ee\L	.	.	.	.	.	16ee\L	.	.	.
.	.	.	.	16dd\JJ	.	.	.	.	.	16dd\JJ	.	.	.
!LO:TX:a:t=problem:mixed beam	!	!	!	!	!	!	!	!	!	!	!	!	!
8C\L	.	4cc\	.	8ee\L	.	8r	.	8c\	-rum	8ee\	-rum	4r	4r
8E\	.	.	.	8ccc\J	.	8C\	ex	8G\	ex	8ee\	ex	.	.
8G\	.	8dd\L	.	16bb\LL	.	8G\	u-	8B\	u-	8dd\	u-	8r	8r
.	.	.	.	16aa\	.	.	.	.	.	.	.	.	.
8GG/J	.	8b\J	.	16gg\	.	16G\	-te-	16B\	-te-	16dd\	-te-	16g/LL	16dd\LL
.	.	.	.	16ff\JJ	.	16G\	-ro	16B\	-ro	16dd\	-ro	16g/JJ	16dd\JJ
=29	=29	=29	=29	=29	=29	=29	=29	=29	=29	=29	=29	=29	=29
!LO:TX:a:t=problem:mixed beam	!	!	!	!	!	!	!	!	!	!	!	!	!
8C\L	.	8cc\L	.	8ee\L	.	8c\	an-	8c\	an-	8ee\	an-	4cc\	4ee\
8E\	.	8ee\	.	8ccc\J	.	16C\	-te	16G\	-te	16ee\	-te	.	.
.	.	.	.	.	.	16C\	lu-	16G\	lu-	16ee\	lu-	.	.
8G\	.	8dd\	.	16bb\LL	.	8G\	-ci-	8B\	-ci-	8dd\	-ci-	8r	8r
.	.	.	.	16aa\	.	.	.	.	.	.	.	.	.
8GG/J	.	8b\J	.	16gg\	.	16G\	-fe-	16B\	-fe-	16dd\	-fe-	16g/LL	16dd\LL
.	.	.	.	16ff\JJ	.	16G\	-rum	16B\	-rum	16dd\	-rum	16g/JJ	16dd\JJ
!LO:TX:a:t=problem:mixed beam	!	!	!	!	!	!	!	!LO:LB:g=original	!	!	!	!	!
8C\L	.	8cc\L	.	8ee\L	.	8C\L	ge-	4c\	ge-	4ee\	ge-	4cc\	4ee\
8E\	.	8ee\	.	8ccc\	.	8E\J	.	.	.	.	.	.	.
8G\	.	8b\	.	8dd\	.	8G\	.	8B\	.	8dd\	.	8g/L	8dd\L
8GG/J	.	8dd\J	.	8bb\J	.	16GG/	-nu-	16B\	-nu-	16dd\	-nu-	8g/J	8dd\J
.	.	.	.	.	.	16GG/	-i	16B\	-i	16dd\	-i	.	.
=30	=30	=30	=30	=30	=30	=30	=30	=30	=30	=30	=30	=30	=30
4C\	.	4ee\	.	8ccc\L	.	4C/	te	4c\	te	4ee\	te	4cc\	4ee\
.	.	.	.	8gg\J	.	.	.	.	.	.	.	.	.
.	.	.	.	8qqff/	.	.	.	.	.	.	.	.	.
8r	.	8r	.	8ee\L	.	4r	.	4r	.	4r	.	4r	4r
8C\	.	8ee\	.	16dd\L	.	.	.	.	.	.	.	.	.
.	.	.	.	16cc\JJ	.	.	.	.	.	.	.	.	.
4F\	.	4cc\	.	4aa\	.	2r	.	2r	.	2r	.	4r	4r
4G\	.	4dd\	.	4bb\	.	.	.	.	.	.	.	8r	8r
.	.	.	.	.	.	.	.	.	.	.	.	8g/	8dd\
=31	=31	=31	=31	=31	=31	=31	=31	=31	=31	=31	=31	=31	=31
4C/	.	4ee\	.	8ccc\L	.	00r	.	1r	.	1r	.	4cc\	4ee\
.	.	.	.	8gg\J	.	.	.	.	.	.	.	.	.
.	.	.	.	8qqff/	.	.	.	.	.	.	.	.	.
8r	.	8r	.	8ee\L	.	.	.	.	.	.	.	4r	4r
8C/	.	8ee\	.	16dd\L	.	.	.	.	.	.	.	.	.
.	.	.	.	16cc\JJ	.	.	.	.	.	.	.	.	.
4F\	.	4cc\	.	4aa\	.	.	.	.	.	.	.	2r	2r
.	.	.	.	8qqcc/	.	.	.	.	.	.	.	.	.
4G\	.	4dd\	.	4b\	.	.	.	.	.	.	.	.	.
=32	=32	=32	=32	=32	=32	=32	=32	=32	=32	=32	=32	=32	=32
4C/	.	4ee\	.	4cc\	.	.	.	4r	.	4r	.	00r	00r
8r	.	4cc\	.	4ee\	.	.	.	4c\	Ju-	4ee\	Ju-	.	.
8C/	.	.	.	.	.	.	.	.	.	.	.	.	.
4G\	.	8b\L	.	8dd\L	.	.	.	8B\	-ra-	8dd\	-ra-	.	.
.	.	8cc\	.	8ee\	.	.	.	8c\	-vit	8ee\	-vit	.	.
4GG/	.	8dd\	.	8ff\	.	.	.	8d\	Do-	8ff\	Do-	.	.
.	.	8dd\J	.	8ff\J	.	.	.	8d\	-mi-	8ff\	-mi-	.	.
=33	=33	=33	=33	=33	=33	=33	=33	=33	=33	=33	=33	=33	=33
.	.	8qqdd/	.	8qqff/	.	.	.	8qqd/	.	8qqff/	.	.	.
4C/	.	4cc\	.	4ee\	.	.	.	4c\	-nuſ	4ee\	-nuſ	.	.
8r	.	8cc\L	.	8ee\L	.	.	.	8c\	et	8ee\	et	.	.
8C/	.	8cc\J	.	8ee\J	.	.	.	8c\	non	8ee\	non	.	.
4G\	.	8b\L	.	8dd\L	.	.	.	8B\	pe-	8dd\	pe-	.	.
.	.	8cc\	.	8ee\	.	.	.	8c\	-ni-	8ee\	-ni-	.	.
!	!	!	!	!	!	!	!	!	!	!LO:LB:g=original	!	!	!
4GG/	.	8dd\	.	8ff\	.	.	.	8d\	-te-	8ff\	-te-	.	.
.	.	8dd\J	.	8ff\J	.	.	.	8d\	-bit	8ff\	-bit	.	.
!	!	!	!	!LO:LB:g=original	!	!	!	!	!	!	!	!	!
=34	=34	=34	=34	=34	=34	=34	=34	=34	=34	=34	=34	=34	=34
4C/	.	8dd\L	.	8ff\L	.	.	.	8d\	e-	8ff\	e-	.	.
.	.	8cc\J	.	8ee\J	.	.	.	8c\	-um	8ee\	-um	.	.
8C/L	.	4ee\	.	4gg\	.	.	.	4e\	tu	4gg\	tu	.	.
8C/J	.	.	.	.	.	.	.	.	.	.	.	.	.
8C/L	.	8ee\L	.	8gg\L	.	.	.	8e\	es	8gg\	es	.	.
8C/	.	16ee\L	.	16ccc\L	.	.	.	16c\LL	sa-	16ee\LL	Sa-	.	.
.	.	16dd\JJ	.	16bb\JJ	.	.	.	16d\JJ	.	16ff\JJ	.	.	.
8C/	.	8ee\L	.	8ccc\L	.	.	.	4e\	-cer-	4gg\	-cer-	.	.
8C/J	.	8ee\J	.	8gg\J	.	.	.	.	.	.	.	.	.
=35	=35	=35	=35	=35	=35	=35	=35	=35	=35	=35	=35	=35	=35
.	.	8qqee/	.	8qqgg/	.	.	.	8qqe/	.	8qqgg/	.	.	.
8G\L	.	4dd\	.	4ff\	.	0r	.	4d\	-doſ	4ff\	-doſ	.	.
8G\	.	.	.	.	.	.	.	.	.	.	.	.	.
8G\	.	4dd\	.	4ff\	.	.	.	4d\	in	4ff\	in	.	.
8G\J	.	.	.	.	.	.	.	.	.	.	.	.	.
!	!	!LO:LB:g=original	!	!	!	!	!	!	!	!	!	!	!
8G\L	.	8dd\L	.	8ff\L	.	.	.	8d\L	ae-	8ff\L	ae-	.	.
8G\	.	(16ff\L	.	16ddd\L	.	.	.	(16B\L	.	(16dd\L	.	.	.
.	.	16ee\JJ)	.	16ccc\JJ	.	.	.	16c\JJ)	.	16ee\JJ)	.	.	.
8G\	.	8ff\L	.	8ddd\L	.	.	.	4d\	-ter-	4ff\	-ter-	.	.
8G\J	.	8dd\J	.	8ff\J	.	.	.	.	.	.	.	.	.
!LO:LB:g=original	!	!	!	!	!	!	!	!LO:LB:g=original	!	!	!	!	!
=36	=36	=36	=36	=36	=36	=36	=36	=36	=36	=36	=36	=36	=36
!	!	!LO:TX:a:t=problem:mixed beam	!	!	!	!	!	!	!	!	!	!	!
4C/	.	8cc\L	.	8ee\L	.	.	.	8c\	-num	8ee\	-num	1r	0r
.	.	8e/	.	8cc\	.	.	.	8E/	se-	8cc\	se-	.	.
4r	.	8f/	.	8dd\	.	.	.	8F/	-cun-	8dd\	-cun-	.	.
.	.	8e/J	.	8cc\J	.	.	.	8E/	-dum	8cc\	-dum	.	.
4r	.	4a/	.	4ff\	.	.	.	8A\	or-	8ff\	or-	.	.
.	.	.	.	.	.	.	.	8A\	-di-	8ff\	-di-	.	.
8r	.	8g/L	.	8ee\L	.	.	.	8G/	-nem	8ee\	-nem	.	.
8F\	.	8f/J	.	8dd\J	.	.	.	8F/	mel-	8dd\	mel-	.	.
=37	=37	=37	=37	=37	=37	=37	=37	=37	=37	=37	=37	=37	=37
!	!	!	!	!	!	!	!	!	!	!	!	!LO:TX:a:t=problem:brakujący pusty takt	!
4G\	.	4e/	.	4cc\	.	1r	.	4E/	-chi-	4cc\	-chi-	1ryy	.
!	!	!LO:TX:a:t=t	!	!LO:TX:a:t=t	!	!	!	!	!	!	!	!	!
4GG/	.	4f/	.	4dd\	.	.	.	8.F/	.	8.dd\	.	.	.
.	.	.	.	.	.	.	.	16F/	-se-	16dd\	-se-	.	.
!	!	!LO:TX:a:t=problem:mixed beam	!	!	!	!	!	!	!	!	!	!	!
4C/	.	16e/LL	.	16cc\LL	.	.	.	4E/	-dech	4cc\	-dech	.	.
.	.	16cc\	.	16cc\	.	.	.	.	.	.	.	.	.
.	.	16ee\	.	16ee\	.	.	.	.	.	.	.	.	.
.	.	16gg\JJ	.	16gg\JJ	.	.	.	.	.	.	.	.	.
4r	.	4ccc\	.	4ccc\	.	.	.	4r	.	4r	.	.	.
=38	=38	=38	=38	=38	=38	=38	=38	=38	=38	=38	=38	=38	=38
4C\	.	4ee\	.	8ccc\L	.	8c\	Do-	8G\	Do-	8ee\	Do-	4cc\	4ee\
.	.	.	.	8cc\	.	8c\	-mi-	8G\	-mi-	8ee\	-mi-	.	.
4G\	.	4dd\	.	8dd\	.	8G\	-nuſ	8B\	-nuſ	8dd\	-nuſ	4g\	4dd\
.	.	.	.	8bb\J	.	8G\	a	8B\	a	8dd\	a	.	.
4C/	.	4ee\	.	8ccc\L	.	8C/	dex-	8c\	dex-	8ee\	dex-	4cc\	4ee\
.	.	.	.	8cc\J	.	8C/	-tritſ	8c\	-tritſ	8ee\	-triſ	.	.
8r	.	8r	.	8r	.	8r	.	8r	.	8r	.	8r	8r
8C/	.	8e/	.	8g/	.	8C/	a	8G/	a	8ee\	a	8ee\	8gg\
!	!	!	!	!	!	!	!	!	!	!LO:LB:g=original	!	!	!
=39	=39	=39	=39	=39	=39	=39	=39	=39	=39	=39	=39	=39	=39
*	*	*	*	*	*	*	*	*	*	*2\right	*	*	*
8C/L	.	4f/	.	4a/	.	2C/	dex-	2A/	dex-	2ff\	dex-	2ff\	2aa\
8C/	.	.	.	.	.	.	.	.	.	.	.	.	.
8C/	.	4a/	.	4cc\	.	.	.	.	.	.	.	.	.
8C/J	.	.	.	.	.	.	.	.	.	.	.	.	.
8C/L	.	4cc\	.	4ff\	.	2C/	-triſ	2A/	-triſ	2ff\	-triſ	4ff\	4aa\
8C/	.	.	.	.	.	.	.	.	.	.	.	.	.
8C/	.	4ff\	.	4aa\	.	.	.	.	.	.	.	8ff\L	8aa\L
8C/J	.	.	.	.	.	.	.	.	.	.	.	8ff\J	8aa\J
!	!	!	!	!	!	!	!	!	!	!	!	!	!LO:LB:g=original
=40	=40	=40	=40	=40	=40	=40	=40	=40	=40	=40	=40	=40	=40
8C/L	.	4e/	.	4g/	.	2c\	dex-	2G/	dex-	2ee\	dex-	2ee\	2gg\
8C/	.	.	.	.	.	.	.	.	.	.	.	.	.
8C/	.	4g/	.	4cc\	.	.	.	.	.	.	.	.	.
8C/J	.	.	.	.	.	.	.	.	.	.	.	.	.
8C/L	.	4cc\	.	4ee\	.	2C/	-triſ	2G/	-triſ	2ee\	-triſ	4ee\	4gg\
8C/	.	.	.	.	.	.	.	.	.	.	.	.	.
8C/	.	4ee\	.	4gg\	.	.	.	.	.	.	.	8ee\L	8gg\L
8C/J	.	.	.	.	.	.	.	.	.	.	.	8ee\J	8gg\J
!	!	!	!	!	!	!LO:LB:g=original	!	!	!	!	!	!LO:LB:g=original	!
=41	=41	=41	=41	=41	=41	=41	=41	=41	=41	=41	=41	=41	=41
8GG/L	.	4d/	.	4f/	.	2G\	tu-	1F	tu-	1dd	tu-	2dd\	2ff\
8GG/	.	.	.	.	.	.	.	.	.	.	.	.	.
8GG/	.	4f/	.	4b\	.	.	.	.	.	.	.	.	.
8GG/J	.	.	.	.	.	.	.	.	.	.	.	.	.
8GG/L	.	4b\	.	4dd\	.	2GG/	.	.	.	.	.	4dd\	4ff\
8GG/	.	.	.	.	.	.	.	.	.	.	.	.	.
8GG/	.	4dd\	.	4ff\	.	.	.	.	.	.	.	8dd\L	8ff\L
8GG/J	.	.	.	.	.	.	.	.	.	.	.	8dd\J	8ff\J
=42	=42	=42	=42	=42	=42	=42	=42	=42	=42	=42	=42	=42	=42
8C\L	.	(20cc\LL	.	16ee\LL	.	8C/	-is	8E/	-iſ	8cc\	-iſ	4cc\	4ee\
.	.	20dd\	.	.	.	.	.	.	.	.	.	.	.
.	.	.	.	16cc\	.	.	.	.	.	.	.	.	.
.	.	20ee\)	.	.	.	.	.	.	.	.	.	.	.
8C\	.	.	.	16ccc\	.	8C/	con-	8c\	con-	8ee\	con-	.	.
.	.	20ee'\	.	.	.	.	.	.	.	.	.	.	.
.	.	.	.	16ccc\JJ	.	.	.	.	.	.	.	.	.
.	.	20ee'\JJ	.	.	.	.	.	.	.	.	.	.	.
!	!	!LO:TX:a:t=t	!	!	!	!	!	!	!	!	!	!	!
8E\	.	4ee\	.	4ccc\	.	4C/	-fre-	4c\	-fre-	4ee\	-fre-	8r	8r
8F\J	.	.	.	.	.	.	.	.	.	.	.	16cc\LL	16ee\LL
.	.	.	.	.	.	.	.	.	.	.	.	16cc\JJ	16ee\JJ
!LO:TX:a:t=problem:mixed beam	!	!	!	!LO:LB:g=original	!	!	!	!	!	!	!	!	!
8G\L	.	(24dd\LL	.	24bb\LL	.	8G\	-git	8B\	-git	8dd\	-git	4g/	4dd\
.	.	24ee\	.	24ccc\	.	.	.	.	.	.	.	.	.
.	.	24ff\JJ)	.	24ddd\JJ	.	.	.	.	.	.	.	.	.
8GG/	.	16dd'\LL	.	16ff\LL	.	8G\	in	8d\	in	8ff\	in	.	.
.	.	16dd'\JJ	.	16ff\JJ	.	.	.	.	.	.	.	.	.
!	!	!LO:TX:a:t=t	!	!LO:TX:a:t=t	!	!	!	!	!	!	!	!	!
8AA/	.	4dd\	.	4ff\	.	4G\	di-	4d\	di-	4ff\	di-	8r	8r
8BB/J	.	.	.	.	.	.	.	.	.	.	.	16g/LL	16dd\LL
.	.	.	.	.	.	.	.	.	.	.	.	16g/JJ	16dd\JJ
!	!	!	!	!	!	!	!	!LO:LB:g=original	!	!	!	!	!
=43	=43	=43	=43	=43	=43	=43	=43	=43	=43	=43	=43	=43	=43
8C\L	.	(20cc\LL	.	(24ee\LL	.	8c\	-e	8c\	-e	8ee\	-e	4cc\	4ee\
.	.	.	.	24dd\	.	.	.	.	.	.	.	.	.
.	.	20dd\	.	.	.	.	.	.	.	.	.	.	.
.	.	.	.	24cc\)	.	.	.	.	.	.	.	.	.
.	.	20ee\)	.	.	.	.	.	.	.	.	.	.	.
8C\	.	.	.	16ccc\	.	8C/	con-	8c\	con-	8ee\	con-	.	.
.	.	20ee'\	.	.	.	.	.	.	.	.	.	.	.
.	.	.	.	16ccc\JJ	.	.	.	.	.	.	.	.	.
.	.	20ee'\JJ	.	.	.	.	.	.	.	.	.	.	.
!	!	!LO:TX:a:t=t	!	!	!	!	!	!	!	!	!	!	!
8E\	.	4ee\	.	4ccc\	.	4C/	-fre-	4c\	-fre-	4ee\	-fre-	8r	8r
8F\J	.	.	.	.	.	.	.	.	.	.	.	16cc\LL	16ee\LL
.	.	.	.	.	.	.	.	.	.	.	.	16cc\JJ	16ee\JJ
!LO:TX:a:t=problem:mixed beam	!	!LO:LB:g=original	!	!	!	!	!	!	!	!	!	!	!
8G\L	.	(24dd\LL	.	24bb\LL	.	8G\	-git	8B\	-git	8dd\	-git	4g/	4dd\
.	.	24ee\	.	24ccc\	.	.	.	.	.	.	.	.	.
.	.	24ff\JJ)	.	24ddd\JJ	.	.	.	.	.	.	.	.	.
8GG/	.	16dd'\LL	.	16ff\LL	.	8G\	in	8d\	in	8ff\	in	.	.
.	.	16dd'\JJ	.	16ff\JJ	.	.	.	.	.	.	.	.	.
!	!	!LO:TX:a:t=t	!	!LO:TX:a:t=t	!	!	!	!	!	!	!	!	!
8AA/	.	4dd\	.	4ff\	.	4G\	di-	4d\	di-	4ff\	di-	8r	8r
8BB/J	.	.	.	.	.	.	.	.	.	.	.	16g/LL	16dd\LL
.	.	.	.	.	.	.	.	.	.	.	.	16g/JJ	16dd\JJ
=44	=44	=44	=44	=44	=44	=44	=44	=44	=44	=44	=44	=44	=44
!LO:TX:a:t=problem:mixed beam	!	!	!	!	!	!	!	!	!	!	!	!	!
8C\L	.	4cc\	.	8ee\L	.	4C\	-e	4c\	-e	4ee\	-e	4cc\	4ee\
8E\	.	.	.	8ccc\J	.	.	.	.	.	.	.	.	.
8G\	.	8dd\L	.	(16bb\LL	.	8G\	i-	8B\	i-	8dd\	i-	8r	8r
.	.	.	.	16aa\)	.	.	.	.	.	.	.	.	.
8GG/J	.	8b\J	.	(16gg\	.	8G\	-rae	8d\	-rae	8ff\	-rae	8g/	8dd\
.	.	.	.	16ff\JJ)	.	.	.	.	.	.	.	.	.
!LO:TX:a:t=problem:mixed beam	!	!	!	!	!	!	!	!	!	!	!	!	!
8C\L	.	8cc\L	.	8ee\L	.	8C\	su-	8c\	su-	8ee\	su-	8cc\L	8ee\L
8E\	.	8ee\	.	8bb\	.	8E\	-ae	8c\	-ae	8ee\	-ae	8cc\	8ee\
!	!	!	!	!	!	!LO:TX:a:t=problem:mixed beam	!	!	!	!	!	!	!
8G\	.	8b\	.	8dd\	.	8G\L	Re-	4B\	Re-	4dd\	re-	8g\	8dd\
8GG/J	.	8dd\J	.	8bb\J	.	8GG/J	.	.	.	.	.	8g\J	8dd\J
=45	=45	=45	=45	=45	=45	=45	=45	=45	=45	=45	=45	=45	=45
4C/	.	4ee\	.	4ccc\	.	4C/	-ges	4c\	-ges	4ee\	-ges	4cc\	4ee\
4r	.	4r	.	4r	.	4r	.	4r	.	4r	.	4r	4r
!	!	!	!	!	!	!	!	!	!	!	!	!	!LO:TX:a:t=Indicabit Tacet
2r	.	2r	.	2r	.	2r	.	2r	.	2r	.	2r	2r
!LO:LB:g=original	!	!LO:LB:g=original	!	!LO:LB:g=original	!	!LO:LB:g=original	!	!LO:LB:g=original	!	!LO:LB:g=original	!	!LO:LB:g=original	!LO:LB:g=original
=46||	=46||	=46||	=46||	=46||	=46||	=46||	=46||	=46||	=46||	=46||	=46||	=46||	=46||
*k[f#]	*	*k[f#]	*	*k[f#]	*	*k[]	*	*	*	*k[f#]	*	*	*
*M2/4	*	*M2/4	*	*M2/4	*	*M2/4	*	*M2/4	*	*M2/4	*	*M2/4	*M2/4
!LO:TX:b:t=Judicabit	!	!	!	!LO:TX:b:t=Judicabit	!	!	!	!	!	!LO:N:vis=00	!	!	!
!LO:TX:a:B:t=Allo'	!	!LO:TX:a:B:t=Allo'	!	!LO:TX:a:B:t=Allo'	!	!LO:TX:a:t=Judicabit Tacet	!	!LO:TX:a:t=Judicabit in nationibus Tacet	!	!LO:TX:a:B:t=Allo'	!	!LO:TX:a:t=Judicabit tacet	!LO:TX:a:t=tacet
8G\L	.	4.dd\	.	4.dd\	.	2ryy	.	2ryy	.	0r	.	2ryy	2ryy
8G\	.	.	.	.	.	.	.	.	.	.	.	.	.
8B\	.	.	.	.	.	.	.	.	.	.	.	.	.
8c\J	.	8gg\	.	8gg\	.	.	.	.	.	.	.	.	.
=47	=47	=47	=47	=47	=47	=47	=47	=47	=47	=47	=47	=47	=47
8d\L	.	24ff#\LL	.	24ff#\LL	.	2ryy	.	2ryy	.	.	.	2ryy	2ryy
.	.	24ee\	.	24ee\	.	.	.	.	.	.	.	.	.
.	.	24dd\JJ	.	24dd\JJ	.	.	.	.	.	.	.	.	.
16d\L	.	4dd\	.	4dd\	.	.	.	.	.	.	.	.	.
16c\JJ	.	.	.	.	.	.	.	.	.	.	.	.	.
8B\L	.	.	.	.	.	.	.	.	.	.	.	.	.
8c\J	.	8ee\	.	8ee\	.	.	.	.	.	.	.	.	.
=48	=48	=48	=48	=48	=48	=48	=48	=48	=48	=48	=48	=48	=48
8B\L	.	(16dd\LL	.	16dd\LL	.	2ryy	.	2ryy	.	.	.	2ryy	2ryy
.	.	16cc\J)	.	16cc\J	.	.	.	.	.	.	.	.	.
8G\	.	8b\J	.	8b\J	.	.	.	.	.	.	.	.	.
.	.	8qqdd/	.	8qqdd/	.	.	.	.	.	.	.	.	.
8A\	.	4cc\	.	4cc\	.	.	.	.	.	.	.	.	.
8D\J	.	.	.	.	.	.	.	.	.	.	.	.	.
=49	=49	=49	=49	=49yy	=49	=49	=49	=49	=49	=49	=49	=49	=49
4GG/	.	16b\LL	.	16b\LL	.	2ryy	.	2ryy	.	.	.	2ryy	2ryy
.	.	16cc\JJ	.	16cc\JJ	.	.	.	.	.	.	.	.	.
.	.	4dd\	.	4dd\	.	.	.	.	.	.	.	.	.
8BB/L	.	.	.	.	.	.	.	.	.	.	.	.	.
8C/J	.	8ee\	.	8ee\	.	.	.	.	.	.	.	.	.
=50	=50	=50	=50	=50	=50	=50	=50	=50	=50	=50	=50	=50	=50
!	!	!	!	!	!	!	!	!	!	!LO:N:vis=00	!	!	!
8BB/L	.	(16dd\LL	.	16dd\LL	.	2ryy	.	2ryy	.	0r	.	2ryy	2ryy
.	.	16cc\J)	.	16cc\J	.	.	.	.	.	.	.	.	.
8GG/	.	8b\J	.	8b\J	.	.	.	.	.	.	.	.	.
.	.	8qqdd/	.	8qqdd/	.	.	.	.	.	.	.	.	.
8AA/	.	4cc\	.	4cc\	.	.	.	.	.	.	.	.	.
8D/J	.	.	.	.	.	.	.	.	.	.	.	.	.
=51	=51	=51	=51	=51	=51	=51	=51	=51	=51	=51	=51	=51	=51
.	.	8qqcc/	.	8qqcc/	.	.	.	.	.	.	.	.	.
8G\L	.	4b\	.	4b\	.	2ryy	.	2ryy	.	.	.	2ryy	2ryy
!LO:TX:a:t=problem:mixed beam	!	!	!	!	!	!	!	!	!	!	!	!	!
8D\	.	.	.	.	.	.	.	.	.	.	.	.	.
8GG/	.	8r	.	8r	.	.	.	.	.	.	.	.	.
8D\J	.	8d/	.	8d/	.	.	.	.	.	.	.	.	.
=52	=52	=52	=52	=52	=52	=52	=52	=52	=52	=52	=52	=52	=52
8G\L	.	8g/L	.	8g/L	.	2ryy	.	2ryy	.	.	.	2ryy	2ryy
8B\	.	8b/	.	8b/	.	.	.	.	.	.	.	.	.
8A\	.	8a/	.	8a/	.	.	.	.	.	.	.	.	.
8G\J	.	8g/J	.	8g/J	.	.	.	.	.	.	.	.	.
=53	=53	=53	=53	=53	=53	=53	=53	=53	=53	=53	=53	=53	=53
8D\L	.	8dd\L	.	8dd\L	.	2ryy	.	2ryy	.	.	.	2ryy	2ryy
8F#\	.	8ff#\	.	8ff#\	.	.	.	.	.	.	.	.	.
8E\	.	8ee\	.	8ee\	.	.	.	.	.	.	.	.	.
8D\J	.	8dd\J	.	8dd\J	.	.	.	.	.	.	.	.	.
=54	=54	=54	=54	=54	=54	=54	=54	=54	=54	=54	=54	=54	=54
!	!	!	!	!	!	!	!	!	!	!LO:N:vis=00	!	!	!
8G\L	.	8gg\L	.	8gg\L	.	2ryy	.	2ryy	.	0r	.	2ryy	2ryy
8B\	.	8b\	.	8b\	.	.	.	.	.	.	.	.	.
8A\	.	8a\	.	8a\	.	.	.	.	.	.	.	.	.
8G\J	.	8g\J	.	8g\J	.	.	.	.	.	.	.	.	.
=55	=55	=55	=55	=55	=55	=55	=55	=55	=55	=55	=55	=55	=55
!	!	!LO:TX:a:t=problem:mixed beam	!	!LO:TX:a:t=problem:mixed beam	!	!	!	!	!	!	!	!	!
8d\L	.	8dd\L	.	8dd\L	.	2ryy	.	2ryy	.	.	.	2ryy	2ryy
8D\J	.	8d/J	.	8d/J	.	.	.	.	.	.	.	.	.
4r	.	4r	.	4r	.	.	.	.	.	.	.	.	.
=56	=56	=56	=56	=56	=56	=56	=56	=56	=56	=56	=56	=56	=56
8r	.	8r	.	(16aa\LL	.	2ryy	.	2ryy	.	.	.	2ryy	2ryy
.	.	.	.	16cc\JJ)	.	.	.	.	.	.	.	.	.
8D\L	.	8f#/L	.	4.cc\	.	.	.	.	.	.	.	.	.
8E\	.	8g/	.	.	.	.	.	.	.	.	.	.	.
8F#\J	.	8a/J	.	.	.	.	.	.	.	.	.	.	.
=57	=57	=57	=57	=57	=57	=57	=57	=57	=57	=57	=57	=57	=57
4G\	.	(16b\LL	.	(16b\LL	.	2ryy	.	2ryy	.	.	.	2ryy	2ryy
.	.	16gg\)	.	16gg\)	.	.	.	.	.	.	.	.	.
.	.	(16ff#\	.	(16ff#\	.	.	.	.	.	.	.	.	.
.	.	16aa\JJ)	.	16aa\JJ)	.	.	.	.	.	.	.	.	.
4r	.	16gg\LL	.	16gg\LL	.	.	.	.	.	.	.	.	.
.	.	16dd\	.	16dd\	.	.	.	.	.	.	.	.	.
.	.	16b\	.	16b\	.	.	.	.	.	.	.	.	.
.	.	16g\JJ	.	16g\JJ	.	.	.	.	.	.	.	.	.
=58	=58	=58	=58	=58	=58	=58	=58	=58	=58	=58	=58	=58	=58
!	!	!	!	!	!	!	!	!	!	!LO:N:vis=00	!	!	!
8r	.	8r	.	(16aa\LL	.	2ryy	.	2ryy	.	0r	.	2ryy	2ryy
.	.	.	.	16cc\JJ)	.	.	.	.	.	.	.	.	.
8D\L	.	8f#/L	.	4.cc\	.	.	.	.	.	.	.	.	.
8E\	.	8g/	.	.	.	.	.	.	.	.	.	.	.
8F#\J	.	8a/J	.	.	.	.	.	.	.	.	.	.	.
=59	=59	=59	=59	=59	=59	=59	=59	=59	=59	=59	=59	=59	=59
!LO:TX:a:t=problem:mixed beam	!	!	!	!	!	!	!	!	!	!	!	!	!
8G\L	.	(16b\LL	.	(16b\LL	.	2ryy	.	2ryy	.	.	.	2ryy	2ryy
.	.	16gg\)	.	16gg\)	.	.	.	.	.	.	.	.	.
8AA/	.	(16ff#\	.	(16ff#\	.	.	.	.	.	.	.	.	.
.	.	16aa\JJ)	.	16aa\JJ)	.	.	.	.	.	.	.	.	.
8BB/	.	(16gg\LL	.	(16gg\LL	.	.	.	.	.	.	.	.	.
.	.	16dd\)	.	16dd\)	.	.	.	.	.	.	.	.	.
8C/J	.	(16ee\	.	(16ee\	.	.	.	.	.	.	.	.	.
.	.	16cc\JJ)	.	16cc\JJ)	.	.	.	.	.	.	.	.	.
!	!	!LO:LB:g=original	!	!LO:LB:g=original	!	!	!	!	!	!	!	!	!
=60	=60	=60	=60	=60	=60	=60	=60	=60	=60	=60	=60	=60	=60
8D/L	.	4b/	.	4b/	.	2ryy	.	2ryy	.	.	.	2ryy	2ryy
8C/	.	.	.	.	.	.	.	.	.	.	.	.	.
!	!	!LO:TX:a:t=t	!	!LO:TX:a:t=t	!	!	!	!	!	!	!	!	!
8D/	.	4a/	.	4a/	.	.	.	.	.	.	.	.	.
8DD/J	.	.	.	.	.	.	.	.	.	.	.	.	.
!LO:LB:g=original	!	!	!	!	!	!	!	!	!	!	!	!	!
=61	=61	=61	=61	=61	=61	=61	=61	=61	=61	=61	=61	=61	=61
8r	.	8r	.	(16aa\LL	.	2ryy	.	2ryy	.	.	.	2ryy	2ryy
.	.	.	.	16cc\JJ)	.	.	.	.	.	.	.	.	.
8D\L	.	8f#/L	.	4.cc\	.	.	.	.	.	.	.	.	.
8E\	.	8g/	.	.	.	.	.	.	.	.	.	.	.
8F#\J	.	8a/J	.	.	.	.	.	.	.	.	.	.	.
=62	=62	=62	=62	=62	=62	=62	=62	=62	=62	=62	=62	=62	=62
!	!	!	!	!	!	!	!	!	!	!LO:N:vis=00	!	!	!
4G\	.	16b\LL	.	16b\LL	.	2ryy	.	2ryy	.	0r	.	2ryy	2ryy
.	.	16gg\	.	16gg\	.	.	.	.	.	.	.	.	.
.	.	16ff#\	.	16ff#\	.	.	.	.	.	.	.	.	.
.	.	16aa\JJ	.	16aa\JJ	.	.	.	.	.	.	.	.	.
4r	.	16gg\LL	.	16gg\LL	.	.	.	.	.	.	.	.	.
.	.	16dd\	.	16dd\	.	.	.	.	.	.	.	.	.
.	.	16b\	.	16b\	.	.	.	.	.	.	.	.	.
.	.	16g\JJ	.	16g\JJ	.	.	.	.	.	.	.	.	.
=63	=63	=63	=63	=63	=63	=63	=63	=63	=63	=63	=63	=63	=63
8r	.	8r	.	(16aa\LL	.	2ryy	.	2ryy	.	.	.	2ryy	2ryy
.	.	.	.	16cc\JJ)	.	.	.	.	.	.	.	.	.
8D\L	.	8f#/L	.	4.cc\	.	.	.	.	.	.	.	.	.
8E\	.	8g/	.	.	.	.	.	.	.	.	.	.	.
8F#\J	.	8a/J	.	.	.	.	.	.	.	.	.	.	.
=64	=64	=64	=64	=64	=64	=64	=64	=64	=64	=64	=64	=64	=64
!LO:TX:a:t=problem:mixed beam	!	!	!	!	!	!	!	!	!	!	!	!	!
8G\L	.	16b\LL	.	(16b\LL	.	2ryy	.	2ryy	.	.	.	2ryy	2ryy
.	.	16gg\	.	16gg\)	.	.	.	.	.	.	.	.	.
8AA/	.	16ff#\	.	(16ff#\	.	.	.	.	.	.	.	.	.
.	.	16aa\JJ	.	16aa\JJ)	.	.	.	.	.	.	.	.	.
8BB/	.	16gg\LL	.	(16gg\LL	.	.	.	.	.	.	.	.	.
.	.	16dd\	.	16dd\)	.	.	.	.	.	.	.	.	.
8C/J	.	16ee\	.	(16ee\	.	.	.	.	.	.	.	.	.
.	.	16cc\JJ	.	16cc\JJ)	.	.	.	.	.	.	.	.	.
=65	=65	=65	=65	=65	=65	=65	=65	=65	=65	=65	=65	=65	=65
8D/L	.	4b/	.	4b/	.	2ryy	.	2ryy	.	.	.	2ryy	2ryy
8C/	.	.	.	.	.	.	.	.	.	.	.	.	.
!	!	!LO:TX:a:t=t	!	!LO:TX:a:t=t	!	!	!	!	!	!	!	!	!
8D/	.	4a/	.	4a/	.	.	.	.	.	.	.	.	.
8DD/J	.	.	.	.	.	.	.	.	.	.	.	.	.
=66	=66	=66	=66	=66	=66	=66	=66	=66	=66	=66	=66	=66	=66
4GG/	.	8g/L	.	8g/L	.	2ryy	.	2ryy	.	2r	.	2ryy	2ryy
.	.	8d/J	.	8d/J	.	.	.	.	.	.	.	.	.
4r;;	.	4G;;/	.	4G;/	.	.	.	.	.	.	.	.	.
=67||	=67||	=67||	=67||	=67||	=67||	=67||	=67||	=67||	=67||	=67||	=67||	=67||	=67||
!	!LO:DY:a	!	!LO:DY:a	!	!LO:DY:a	!	!	!	!	!	!	!	!
!	!LO:DY:t=pia	!	!LO:DY:t=pia	!	!LO:DY:t=pia	!	!	!	!	!	!	!	!
8GG/L	p	8b\L	p	4.dd\	p	2ryy	.	2ryy	.	4.dd\	Ju-	2ryy	2ryy
8GG/	.	8b\	.	.	.	.	.	.	.	.	.	.	.
8BB/	.	8dd\	.	.	.	.	.	.	.	.	.	.	.
8C/J	.	8ee\J	.	8gg\	.	.	.	.	.	8gg\	-di-	.	.
=68	=68	=68	=68	=68	=68	=68	=68	=68	=68	=68	=68	=68	=68
.	.	.	.	.	.	.	.	.	.	8qqgg/	.	.	.
*	*	*	*	*	*	*	*	*	*	*Xtuplet	*	*	*
8D/L	.	24a/LL	.	24ff#\LL	.	2ryy	.	2ryy	.	24ff#\LL	-ca-	2ryy	2ryy
.	.	24g/	.	24ee\	.	.	.	.	.	24ee\	.	.	.
.	.	24f#/JJ	.	24dd\JJ	.	.	.	.	.	24dd\JJ	.	.	.
8AA/	.	4f#/	.	4dd\	.	.	.	.	.	4dd\	-bit	.	.
8DD/J	.	.	.	.	.	.	.	.	.	.	.	.	.
8r	.	8cc\	.	8ee\	.	.	.	.	.	8ee\	in	.	.
=69	=69	=69	=69	=69	=69	=69	=69	=69	=69	=69	=69	=69	=69
.	.	8qqcc/	.	8qqee/	.	.	.	.	.	8qqee/	.	.	.
8r	.	8b\L	.	8dd\L	.	2ryy	.	2ryy	.	8dd\	na-	2ryy	2ryy
8GG/L	.	16a\L	.	16cc\L	.	.	.	.	.	16cc\LL	-ti-	.	.
.	.	16g\JJ	.	16b\JJ	.	.	.	.	.	16b\JJ	.	.	.
.	.	8qqb/	.	8qqdd/	.	.	.	.	.	8qqdd/	.	.	.
8D/	.	4a/	.	4cc\	.	.	.	.	.	8.cc\	-o-	.	.
8D/J	.	.	.	.	.	.	.	.	.	.	.	.	.
.	.	.	.	.	.	.	.	.	.	16cc\	-ni-	.	.
=70	=70	=70	=70	=70	=70	=70	=70	=70	=70	=70	=70	=70	=70
.	.	8qqa/	.	8qqcc/	.	.	.	.	.	8qqcc/	.	.	.
4GG/	.	16g/LL	.	16b\LL	.	2ryy	.	2ryy	.	4b\	-bus	2ryy	2ryy
.	.	16a/JJ	.	16cc\JJ	.	.	.	.	.	.	.	.	.
.	.	4b/	.	4dd\	.	.	.	.	.	.	.	.	.
4r	.	.	.	.	.	.	.	.	.	8r	.	.	.
.	.	8cc\	.	8ee\	.	.	.	.	.	8ee\	in	.	.
=71	=71	=71	=71	=71	=71	=71	=71	=71	=71	=71	=71	=71	=71
.	.	8qqcc/	.	8qqee/	.	.	.	.	.	8qqee/	.	.	.
8r	.	8b\L	.	8dd\L	.	2ryy	.	2ryy	.	8dd\	na-	2ryy	2ryy
8GG/L	.	16a\L	.	16cc\L	.	.	.	.	.	16cc\LL	-ti-	.	.
.	.	16g\JJ	.	16b\JJ	.	.	.	.	.	16b\JJ	.	.	.
.	.	8qqb/	.	8qqdd/	.	.	.	.	.	8qqdd/	.	.	.
8D/	.	4a/	.	4cc\	.	.	.	.	.	8.cc\	-o-	.	.
8D/J	.	.	.	.	.	.	.	.	.	.	.	.	.
.	.	.	.	.	.	.	.	.	.	16cc\	-ni-	.	.
=72	=72	=72	=72	=72	=72	=72	=72	=72	=72	=72	=72	=72	=72
.	.	8qqa/	.	8qqcc/	.	.	.	.	.	8qqcc/	.	.	.
!LO:TX:a:t=problem:mixed beam	!	!	!	!	!	!	!	!	!	!	!	!	!
8G\L	.	4g/	.	4b\	.	2ryy	.	2ryy	.	4b\	-buſ	2ryy	2ryy
8D\	.	.	.	.	.	.	.	.	.	.	.	.	.
8GG/	.	8r	.	8r	.	.	.	.	.	8r	.	.	.
8D\J	.	8d/	.	8d/	.	.	.	.	.	8d/	im-	.	.
=73	=73	=73	=73	=73	=73	=73	=73	=73	=73	=73	=73	=73	=73
8G\L	.	8g/L	.	8g/L	.	2ryy	.	2ryy	.	8g\L	-ple-	2ryy	2ryy
8B\	.	8b/	.	8b/	.	.	.	.	.	8b\J	.	.	.
8A\	.	8a/	.	8a/	.	.	.	.	.	8a\	-bit	.	.
8G\J	.	8g/J	.	8g/J	.	.	.	.	.	8g\	ru-	.	.
!	!	!LO:LB:g=original	!	!LO:LB:g=original	!	!	!	!	!	!	!	!	!
=74	=74	=74	=74	=74	=74	=74	=74	=74	=74	=74	=74	=74	=74
8D\L	.	8dd\L	.	8dd\L	.	2ryy	.	2ryy	.	8dd\L	-i-	2ryy	2ryy
8F#\	.	8ff#\	.	8ff#\	.	.	.	.	.	8ff#\J	.	.	.
8E\	.	8ee\	.	8ee\	.	.	.	.	.	8ee\	-naſ	.	.
8D\J	.	8dd\J	.	8dd\J	.	.	.	.	.	8dd\	im-	.	.
=75	=75	=75	=75	=75	=75	=75	=75	=75	=75	=75	=75	=75	=75
8G\L	.	8gg\L	.	8gg\L	.	2ryy	.	2ryy	.	8gg\L	-ple-	2ryy	2ryy
8B\	.	8b\	.	8b\	.	.	.	.	.	8b\J	.	.	.
8A\	.	8a\	.	8a\	.	.	.	.	.	8a\	-bit	.	.
8G\J	.	8g\J	.	8g\J	.	.	.	.	.	8g\	ru-	.	.
!LO:LB:g=original	!	!	!	!	!	!	!	!	!	!LO:LB:g=original	!	!	!
=76	=76	=76	=76	=76	=76	=76	=76	=76	=76	=76	=76	=76	=76
!	!	!LO:TX:a:t=problem:mixed beam	!	!LO:TX:a:t=problem:mixed beam	!	!	!	!	!	!LO:TX:a:t=problem:takt nieczytelny	!	!	!
8d\L	.	8dd\L	.	8dd\L	.	2ryy	.	2ryy	.	8dd\L	-i-	2ryy	2ryy
8D\J	.	8d/J	.	8d/J	.	.	.	.	.	8d\J	-naſ	.	.
4r	.	4r	.	4r	.	.	.	.	.	4r	.	.	.
=77	=77	=77	=77	=77	=77	=77	=77	=77	=77	=77	=77	=77	=77
8r	.	4.f#/	.	4.a\	.	2ryy	.	2ryy	.	4.a\	con-	2ryy	2ryy
8d\L	.	.	.	.	.	.	.	.	.	.	.	.	.
8D\	.	.	.	.	.	.	.	.	.	.	.	.	.
8d\J	.	8f#/	.	8dd\	.	.	.	.	.	8dd\	-quas-	.	.
=78	=78	=78	=78	=78	=78	=78	=78	=78	=78	=78	=78	=78	=78
!LO:TX:a:t=problem:mixed beam	!	!	!	!	!	!	!	!	!	!	!	!	!
8A\L	.	4f#/	.	4dd\	.	2ryy	.	2ryy	.	4dd\	-sa-	2ryy	2ryy
8AA/J	.	.	.	.	.	.	.	.	.	.	.	.	.
.	.	8qqf#/	.	8qqdd/	.	.	.	.	.	8qqdd/	.	.	.
4AA/	.	4e/	.	4cc#X\	.	.	.	.	.	4cc#X\	-bit	.	.
=79	=79	=79	=79	=79	=79	=79	=79	=79	=79	=79	=79	=79	=79
!	!	!LO:TX:a:t=problem:mixed beam	!	!	!	!	!	!	!	!	!	!	!
8r	.	8f#\L	.	8a\L	.	2ryy	.	2ryy	.	8a\	con-	2ryy	2ryy
!LO:TX:a:t=problem:mixed beam	!	!	!	!	!	!	!	!	!	!	!	!	!
8d\L	.	8f#\	.	8a\	.	.	.	.	.	8a\	-quas-	.	.
8D/	.	8f#\	.	8a\	.	.	.	.	.	8a\	-sa-	.	.
8d\J	.	8dd/J	.	8ff#\J	.	.	.	.	.	8ff#\	-bit	.	.
=80	=80	=80	=80	=80	=80	=80	=80	=80	=80	=80	=80	=80	=80
!LO:TX:a:t=problem:mixed beam	!	!	!	!	!	!	!	!	!	!	!	!	!
8A\L	.	(4dd\	.	4ff#\	.	2ryy	.	2ryy	.	8.ff#\	ca-	2ryy	2ryy
8AA/	.	.	.	.	.	.	.	.	.	.	.	.	.
.	.	.	.	.	.	.	.	.	.	16ff#\	-pi-	.	.
!	!	!LO:TX:a:t=problem:mixed beam	!	!	!	!	!	!	!	!	!	!	!
8AA/	.	8cc\L)	.	8ee\L	.	.	.	.	.	8ee\	-ta	.	.
8F#\J	.	8d/J	.	8a\J	.	.	.	.	.	8a\	in	.	.
=81	=81	=81	=81	=81	=81	=81	=81	=81	=81	=81	=81	=81	=81
8G\L	.	8d/L	.	8b\L	.	2ryy	.	2ryy	.	8b\	ter-	2ryy	2ryy
8G\	.	8d/	.	8b\	.	.	.	.	.	4dd\	-ra	.	.
8G\	.	8d/	.	8b\	.	.	.	.	.	.	.	.	.
8G\J	.	8d/J	.	8b\J	.	.	.	.	.	8gg\	mul-	.	.
=82	=82	=82	=82	=82	=82	=82	=82	=82	=82	=82	=82	=82	=82
8G\L	.	8d/L	.	8b\L	.	2ryy	.	2ryy	.	(8gg\L	-to-	2ryy	2ryy
8G\	.	8d/	.	8b\	.	.	.	.	.	8dd\	.	.	.
8G\	.	8d/	.	8b\	.	.	.	.	.	8b\	.	.	.
8G\J	.	8d/J	.	8b\J	.	.	.	.	.	8g\J)	.	.	.
=83	=83	=83	=83	=83	=83	=83	=83	=83	=83	=83	=83	=83	=83
8F#\L	.	8d/L	.	8a/L	.	2ryy	.	2ryy	.	8a\	.	2ryy	2ryy
8F#\	.	8d/	.	8a/	.	.	.	.	.	4cc\	.	.	.
8F#\	.	8d/	.	8a/	.	.	.	.	.	.	.	.	.
8F#\J	.	8d/J	.	8a/J	.	.	.	.	.	8ff#\	.	.	.
=84	=84	=84	=84	=84	=84	=84	=84	=84	=84	=84	=84	=84	=84
8F#\L	.	8d/L	.	8a/L	.	2ryy	.	2ryy	.	(8ff#\L	.	2ryy	2ryy
8F#\	.	8d/	.	8a/	.	.	.	.	.	8cc\	.	.	.
8F#\	.	8d/	.	8a/	.	.	.	.	.	8a\	.	.	.
8F#\J	.	8d/J	.	8a/J	.	.	.	.	.	8f#\J)	.	.	.
=85	=85	=85	=85	=85	=85	=85	=85	=85	=85	=85	=85	=85	=85
8E\L	.	8c#X/L	.	8g/L	.	2ryy	.	2ryy	.	(8g\	.	2ryy	2ryy
8E\	.	8c#/	.	8g/	.	.	.	.	.	4cc#X\	.	.	.
8E\	.	8c#/	.	8g/	.	.	.	.	.	.	.	.	.
8E\J	.	8c#/J	.	8g/J	.	.	.	.	.	8ee\)	.	.	.
=86	=86	=86	=86	=86	=86	=86	=86	=86	=86	=86	=86	=86	=86
8AA/L	.	8e/L	.	8g/L	.	2ryy	.	2ryy	.	(8ee\L	.	2ryy	2ryy
8AA/	.	8e/	.	8g/	.	.	.	.	.	8cc#X\	.	.	.
8AA/	.	8e/	.	8g/	.	.	.	.	.	8g\	.	.	.
8AA/J	.	8e/J	.	8g/J	.	.	.	.	.	8e\J)	.	.	.
=87	=87	=87	=87	=87	=87	=87	=87	=87	=87	=87	=87	=87	=87
4D\	.	8d/L	.	8f#/L	.	2ryy	.	2ryy	.	8f#/	-rum	2ryy	2ryy
.	.	8f#/	.	8a/	.	.	.	.	.	(8a\L	in	.	.
8r	.	8g/	.	8b/	.	.	.	.	.	8b\	.	.	.
8A\	.	8e/J	.	8cc#X/J	.	.	.	.	.	8cc#X\J)	.	.	.
!	!	!	!	!	!	!	!	!	!	!LO:LB:g=original	!	!	!
=88	=88	=88	=88	=88	=88	=88	=88	=88	=88	=88	=88	=88	=88
!	!	!	!	!	!	!	!	!	!	!LO:TX:a:t=problem:pierwsza miara taktu na urwanej kartce	!	!	!
8D\L	.	8f#/L	.	8dd\L	.	2ryy	.	2ryy	.	(8dd\L	ter-	2ryy	2ryy
8E\	.	8g/	.	16cc#X\L	.	.	.	.	.	16cc#X\L	.	.	.
.	.	.	.	16b\JJ	.	.	.	.	.	16b\JJ)	.	.	.
8F#\	.	8a/	.	16a\LL	.	.	.	.	.	(16a\LL	-ra	.	.
.	.	.	.	16gg\	.	.	.	.	.	16gg\JJ)	.	.	.
8G\J	.	8b/J	.	16ff#\	.	.	.	.	.	(16ff#\LL	mul-	.	.
.	.	.	.	16ee\JJ	.	.	.	.	.	16ee\JJ)	.	.	.
!	!	!	!	!LO:LB:g=original	!	!	!	!	!	!	!	!	!
=89	=89	=89	=89	=89	=89	=89	=89	=89	=89	=89	=89	=89	=89
!LO:TX:a:t=problem:mixed beam	!	!	!	!	!	!	!	!	!	!	!	!	!
8A\L	.	4f#/	.	4dd\	.	2ryy	.	2ryy	.	(4dd\	-to-	2ryy	2ryy
8G\	.	.	.	.	.	.	.	.	.	.	.	.	.
!	!	!LO:TX:a:t=t	!	!LO:TX:a:t=t	!	!	!	!	!	!	!	!	!
8A\	.	4g/	.	4ee\	.	.	.	.	.	4ee\)	.	.	.
8AA/J	.	.	.	.	.	.	.	.	.	.	.	.	.
=90	=90	=90	=90	=90	=90	=90	=90	=90	=90	=90	=90	=90	=90
.	.	8qqg/	.	8qqee/	.	.	.	.	.	8qqee/	.	.	.
!	!LO:DY:a	!	!	!	!	!	!	!	!	!	!	!	!
!	!LO:DY:t=for	!	!	!	!	!	!	!	!	!	!	!	!
8D\L	f	4f#/	.	4dd\	.	2ryy	.	2ryy	.	4dd\	-rum	2ryy	2ryy
16D\L	.	.	.	.	.	.	.	.	.	.	.	.	.
16E\JJ	.	.	.	.	.	.	.	.	.	.	.	.	.
8F#\L	.	4r	.	4r	.	.	.	.	.	4r	.	.	.
8D\J	.	.	.	.	.	.	.	.	.	.	.	.	.
!LO:LB:g=original	!	!LO:LB:g=original	!	!	!	!	!	!	!	!	!	!	!
=91	=91	=91	=91	=91	=91	=91	=91	=91	=91	=91	=91	=91	=91
!	!	!	!LO:DY:a	!LO:TX:a:t=problem:mixed beam	!	!	!	!	!	!LO:N:vis=00	!	!	!
!	!	!	!LO:DY:t=for	!	!	!	!	!	!	!	!	!	!
8r	.	8r	f	(16ee\LL	.	2ryy	.	2ryy	.	0r	.	2ryy	2ryy
.	.	.	.	16g\JJ)	.	.	.	.	.	.	.	.	.
!	!	!	!	!	!LO:DY:a	!	!	!	!	!	!	!	!
8AA/L	.	8c#X/L	.	4.g/	f	.	.	.	.	.	.	.	.
8BB/	.	8d/	.	.	.	.	.	.	.	.	.	.	.
8C#X/J	.	8e/J	.	.	.	.	.	.	.	.	.	.	.
=92	=92	=92	=92	=92	=92	=92	=92	=92	=92	=92	=92	=92	=92
!	!	!LO:TX:a:t=problem:mixed beam	!	!LO:TX:a:t=problem:mixed beam	!	!	!	!	!	!	!	!	!
4D\	.	(16f#/LL	.	(16f#/LL	.	2ryy	.	2ryy	.	.	.	2ryy	2ryy
.	.	16dd\)	.	16dd\)	.	.	.	.	.	.	.	.	.
.	.	(16cc#X\	.	(16cc#X\	.	.	.	.	.	.	.	.	.
.	.	16ee\JJ)	.	16ee\JJ)	.	.	.	.	.	.	.	.	.
4r	.	16dd\LL	.	16dd\LL	.	.	.	.	.	.	.	.	.
.	.	16a\	.	16a\	.	.	.	.	.	.	.	.	.
.	.	16f#\	.	16f#\	.	.	.	.	.	.	.	.	.
.	.	16d\JJ	.	16d\JJ	.	.	.	.	.	.	.	.	.
=93	=93	=93	=93	=93	=93	=93	=93	=93	=93	=93	=93	=93	=93
!	!	!	!	!LO:TX:a:t=problem:mixed beam	!	!	!	!	!	!	!	!	!
8r	.	8r	.	(16ee\LL	.	2ryy	.	2ryy	.	.	.	2ryy	2ryy
.	.	.	.	16g\JJ)	.	.	.	.	.	.	.	.	.
8AA/L	.	8c#X/L	.	4.g/	.	.	.	.	.	.	.	.	.
8BB/	.	8d/	.	.	.	.	.	.	.	.	.	.	.
8C#X/J	.	8e/J	.	.	.	.	.	.	.	.	.	.	.
=94	=94	=94	=94	=94	=94	=94	=94	=94	=94	=94	=94	=94	=94
!	!	!LO:TX:a:t=problem:mixed beam	!	!	!	!	!	!	!	!	!	!	!
8D\L	.	(16f#/LL	.	(16f#\LL	.	2ryy	.	2ryy	.	.	.	2ryy	2ryy
!	!	!	!	!LO:TX:a:t=problem:mixed beam	!	!	!	!	!	!	!	!	!
.	.	16dd\)	.	16dd\)	.	.	.	.	.	.	.	.	.
8E\	.	(16cc#X\	.	(16cc#X\	.	.	.	.	.	.	.	.	.
.	.	16ee\JJ)	.	16ee\JJ)	.	.	.	.	.	.	.	.	.
8F#\	.	16dd\LL	.	(16dd\LL	.	.	.	.	.	.	.	.	.
.	.	16a\	.	16a\)	.	.	.	.	.	.	.	.	.
8G\J	.	16b\	.	(16b\	.	.	.	.	.	.	.	.	.
.	.	16g\JJ	.	16g\JJ)	.	.	.	.	.	.	.	.	.
=95	=95	=95	=95	=95	=95	=95	=95	=95	=95	=95	=95	=95	=95
!LO:TX:a:t=problem:mixed beam	!	!	!	!	!	!	!	!	!	!LO:N:vis=0	!	!	!
8A\L	.	4f#/	.	4f#/	.	2ryy	.	2ryy	.	1r	.	2ryy	2ryy
8G\	.	.	.	.	.	.	.	.	.	.	.	.	.
!	!	!LO:TX:a:t=t	!	!LO:TX:a:t=t	!	!	!	!	!	!	!	!	!
8A\	.	4e/	.	4e/	.	.	.	.	.	.	.	.	.
8AA/J	.	.	.	.	.	.	.	.	.	.	.	.	.
=96	=96	=96	=96	=96	=96	=96	=96	=96	=96	=96	=96	=96	=96
4D\	.	8d/L	.	8d/L	.	2ryy	.	2ryy	.	.	.	2ryy	2ryy
.	.	8A/J	.	8A/J	.	.	.	.	.	.	.	.	.
4r	.	4d/	.	4d/	.	.	.	.	.	.	.	.	.
=97	=97	=97	=97	=97	=97	=97	=97	=97	=97	=97	=97	=97	=97
!	!LO:DY:a	!	!LO:DY:a	!	!LO:DY:a	!	!	!	!	!	!	!	!
!	!LO:DY:t=pia	!	!LO:DY:t=pia	!	!LO:DY:t=pia	!	!	!	!	!	!	!	!
8D\L	p	8f#/L	p	4.a\	p	2ryy	.	2ryy	.	4.a\	De	2ryy	2ryy
8D\	.	8f#/	.	.	.	.	.	.	.	.	.	.	.
8F#\	.	8a/	.	.	.	.	.	.	.	.	.	.	.
8G\J	.	8b/J	.	8dd\	.	.	.	.	.	8dd\	to-	.	.
=98	=98	=98	=98	=98	=98	=98	=98	=98	=98	=98	=98	=98	=98
!LO:TX:a:t=problem:mixed beam	!	!	!	!	!	!	!	!	!	!	!	!	!
8A\L	.	24e/LL	.	24cc#X\LL	.	2ryy	.	2ryy	.	24cc#X\LL	-ren-	2ryy	2ryy
.	.	24d/	.	24b\	.	.	.	.	.	24b\	.	.	.
.	.	24c#X/JJ	.	24a\JJ	.	.	.	.	.	24a\JJ	.	.	.
8E\	.	4c#/	.	4a\	.	.	.	.	.	4a\	-te	.	.
8AA/J	.	.	.	.	.	.	.	.	.	.	.	.	.
8r	.	8g/	.	8b\	.	.	.	.	.	8b\	in	.	.
=99	=99	=99	=99	=99	=99	=99	=99	=99	=99	=99	=99	=99	=99
.	.	8qqg/	.	8qqb/	.	.	.	.	.	8qqb/	.	.	.
8r	.	8f#/L	.	8a/L	.	2ryy	.	2ryy	.	8a\	vi-	2ryy	2ryy
!LO:TX:a:t=problem:mixed beam	!	!	!	!	!	!	!	!	!	!	!	!	!
8D\L	.	16e/L	.	16g/L	.	.	.	.	.	(16g\LL	-a	.	.
.	.	16d/JJ	.	16f#/JJ	.	.	.	.	.	16f#\JJ)	.	.	.
.	.	8qqf#/	.	8qqa/	.	.	.	.	.	8qqa/	.	.	.
8A\	.	4e/	.	4g/	.	.	.	.	.	4g\	bi-	.	.
8AA/J	.	.	.	.	.	.	.	.	.	.	.	.	.
=100	=100	=100	=100	=100	=100	=100	=100	=100	=100	=100	=100	=100	=100
.	.	.	.	.	.	.	.	.	.	8qqg/	.	.	.
4D\	.	16d/LL	.	16f#/LL	.	2ryy	.	2ryy	.	4f#/	-bet	2ryy	2ryy
.	.	16e/JJ	.	16g/JJ	.	.	.	.	.	.	.	.	.
.	.	4f#/	.	4a/	.	.	.	.	.	.	.	.	.
4r	.	.	.	.	.	.	.	.	.	8r	.	.	.
.	.	8g/	.	8b/	.	.	.	.	.	8b\	in	.	.
=101	=101	=101	=101	=101	=101	=101	=101	=101	=101	=101	=101	=101	=101
8r	.	8a/L	.	8ccn\L	.	2ryy	.	2ryy	.	8ccn\	vi-	2ryy	2ryy
8D\L	.	8g/J	.	8b\J	.	.	.	.	.	8b\	-a	.	.
8F#\	.	4a/	.	4cc\	.	.	.	.	.	4cc\	bi-	.	.
8D\J	.	.	.	.	.	.	.	.	.	.	.	.	.
=102	=102	=102	=102	=102	=102	=102	=102	=102	=102	=102	=102	=102	=102
.	.	8qqa/	.	8qqcc/	.	.	.	.	.	8qqcc/	.	.	.
!LO:TX:a:t=problem:mixed beam	!	!	!	!	!	!	!	!	!	!	!	!	!
8G\L	.	4g/	.	4b\	.	2ryy	.	2ryy	.	4b\	-bet	2ryy	2ryy
8D\	.	.	.	.	.	.	.	.	.	.	.	.	.
8GG/	.	4r	.	4r	.	.	.	.	.	4r	.	.	.
8AA/J	.	.	.	.	.	.	.	.	.	.	.	.	.
!	!	!	!	!LO:LB:g=original	!	!	!	!	!	!	!	!	!
=103	=103	=103	=103	=103	=103	=103	=103	=103	=103	=103	=103	=103	=103
8BB/L	.	8g/L	.	8dd\L	.	2ryy	.	2ryy	.	16dd\LL	prop-	2ryy	2ryy
.	.	.	.	.	.	.	.	.	.	16cc\	.	.	.
8BB/	.	8g/	.	8dd\	.	.	.	.	.	16b\	.	.	.
.	.	.	.	.	.	.	.	.	.	16a\JJ	.	.	.
8BB/	.	8g/	.	8dd\	.	.	.	.	.	8g\	-te-	.	.
!	!	!	!	!	!	!	!	!	!	!LO:TX:a:t=problem:tekst nieczytelny	!	!	!
8BB/J	.	8g/J	.	8dd\J	.	.	.	.	.	8ffn\	-re-	.	.
!	!	!LO:LB:g=original	!	!	!	!	!	!	!	!	!	!	!
=104	=104	=104	=104	=104	=104	=104	=104	=104	=104	=104	=104	=104	=104
.	.	.	.	.	.	.	.	.	.	8qqffn/	.	.	.
8C/L	.	8g/L	.	8ee\L	.	2ryy	.	2ryy	.	4ee\	-a	2ryy	2ryy
8C/	.	8g/	.	8ee\	.	.	.	.	.	.	.	.	.
8C/	.	8g/	.	8ee\	.	.	.	.	.	4r	.	.	.
8C/J	.	8g/J	.	8ee\J	.	.	.	.	.	.	.	.	.
!	!	!	!	!	!	!	!	!	!	!LO:LB:g=original	!	!	!
=105	=105	=105	=105	=105	=105	=105	=105	=105	=105	=105	=105	=105	=105
8C#X/L	.	8a/L	.	8ee\L	.	2ryy	.	2ryy	.	16ee\LL	Ex-	2ryy	2ryy
.	.	.	.	.	.	.	.	.	.	16dd\JJ	.	.	.
8C#/	.	8a/	.	8ee\	.	.	.	.	.	16cc#X\LL	-al-	.	.
.	.	.	.	.	.	.	.	.	.	16b\JJ	.	.	.
8C#/	.	8a/	.	8ee\	.	.	.	.	.	8a\	-ta-	.	.
8C#/J	.	8a/J	.	8ee\J	.	.	.	.	.	8gg\	-bit	.	.
!LO:LB:g=original	!	!	!	!	!	!	!	!	!	!	!	!	!
=106	=106	=106	=106	=106	=106	=106	=106	=106	=106	=106	=106	=106	=106
8D/L	.	8a/L	.	8ff#\L	.	2ryy	.	2ryy	.	4ff#X\	ca-	2ryy	2ryy
8D/J	.	8a/J	.	8ff#\J	.	.	.	.	.	.	.	.	.
16D/LL	.	4a/	.	4ff#\	.	.	.	.	.	4ff#\	-put	.	.
16C/	.	.	.	.	.	.	.	.	.	.	.	.	.
16BB/	.	.	.	.	.	.	.	.	.	.	.	.	.
16AA/JJ	.	.	.	.	.	.	.	.	.	.	.	.	.
=107	=107	=107	=107	=107	=107	=107	=107	=107	=107	=107	=107	=107	=107
!LO:TX:a:t=problem:mixed beam	!	!	!	!	!	!	!	!	!	!	!	!	!
8GG/L	.	8b\L	.	4.dd\	.	2ryy	.	2ryy	.	4.dd\	de	2ryy	2ryy
8G\	.	8b\	.	.	.	.	.	.	.	.	.	.	.
8B\	.	8dd\	.	.	.	.	.	.	.	.	.	.	.
8c\J	.	8ee\J	.	8gg\	.	.	.	.	.	8gg\	to-	.	.
=108	=108	=108	=108	=108	=108	=108	=108	=108	=108	=108	=108	=108	=108
.	.	.	.	8qqgg/	.	.	.	.	.	8qqff#/	.	.	.
8d\L	.	24a/LL	.	24ff#\LL	.	2ryy	.	2ryy	.	(24ff#\LL	-ren-	2ryy	2ryy
.	.	24g/	.	24ee\	.	.	.	.	.	24ee\	.	.	.
.	.	24f#/JJ	.	24dd\JJ	.	.	.	.	.	24dd\JJ)	.	.	.
8A\	.	4f#/	.	4dd\	.	.	.	.	.	4dd\	-te	.	.
8D\J	.	.	.	.	.	.	.	.	.	.	.	.	.
8r	.	8cc\	.	8ee\	.	.	.	.	.	8ee\	in	.	.
=109	=109	=109	=109	=109	=109	=109	=109	=109	=109	=109	=109	=109	=109
.	.	8qqcc/	.	8qqee/	.	.	.	.	.	8qqee/	.	.	.
8r	.	8b\L	.	8dd\L	.	2ryy	.	2ryy	.	8dd\	vi-	2ryy	2ryy
8G\L	.	16a\L	.	16cc\L	.	.	.	.	.	(16cc\LL	-a	.	.
.	.	16g\JJ	.	16b\JJ	.	.	.	.	.	16b\JJ)	.	.	.
.	.	8qqb/	.	8qqdd/	.	.	.	.	.	8qqdd/	.	.	.
8d\	.	4a\	.	4cc\	.	.	.	.	.	4cc\	bi-	.	.
8D\J	.	.	.	.	.	.	.	.	.	.	.	.	.
=110	=110	=110	=110	=110	=110	=110	=110	=110	=110	=110	=110	=110	=110
.	.	.	.	.	.	.	.	.	.	8qqcc/	.	.	.
4G\	.	16g\LL	.	16b\LL	.	2ryy	.	2ryy	.	4b\	-bet	2ryy	2ryy
.	.	16a\JJ	.	16cc\JJ	.	.	.	.	.	.	.	.	.
.	.	4b\	.	4dd\	.	.	.	.	.	.	.	.	.
4r	.	.	.	.	.	.	.	.	.	8r	.	.	.
.	.	8cc\	.	8ee\	.	.	.	.	.	8ee\	in	.	.
=111	=111	=111	=111	=111	=111	=111	=111	=111	=111	=111	=111	=111	=111
.	.	8qqcc/	.	8qqee/	.	.	.	.	.	8qqee/	.	.	.
8r	.	8b\L	.	8dd\L	.	2ryy	.	2ryy	.	8dd\	vi-	2ryy	2ryy
8GG/L	.	16a\L	.	16cc\L	.	.	.	.	.	(16cc\LL	-a	.	.
.	.	16g\JJ	.	16b\JJ	.	.	.	.	.	16b\JJ)	.	.	.
.	.	8qqb/	.	8qqdd/	.	.	.	.	.	8qqdd/	.	.	.
8D/	.	4a/	.	4cc\	.	.	.	.	.	4cc\	bi-	.	.
8D/J	.	.	.	.	.	.	.	.	.	.	.	.	.
=112	=112	=112	=112	=112	=112	=112	=112	=112	=112	=112	=112	=112	=112
.	.	8qqa/	.	8qqcc/	.	.	.	.	.	8qqcc/	.	.	.
!LO:TX:a:t=problem:mixed beam	!	!	!	!	!	!	!	!	!	!	!	!	!
8G\L	.	4g/	.	4b\	.	2ryy	.	2ryy	.	4b\	-bet	2ryy	2ryy
8D\	.	.	.	.	.	.	.	.	.	.	.	.	.
8GG/	.	8r	.	8r	.	.	.	.	.	8r	.	.	.
8D\J	.	8d/	.	8d/	.	.	.	.	.	8d/	in	.	.
=113	=113	=113	=113	=113	=113	=113	=113	=113	=113	=113	=113	=113	=113
8G\L	.	8g/L	.	8g/L	.	2ryy	.	2ryy	.	(8g\L	vi-	2ryy	2ryy
8B\	.	8b/	.	8b/	.	.	.	.	.	8b\J)	.	.	.
8A\	.	8a/	.	8a/	.	.	.	.	.	(8a\L	-a	.	.
8G\J	.	8g/J	.	8g/J	.	.	.	.	.	8g\J)	.	.	.
=114	=114	=114	=114	=114	=114	=114	=114	=114	=114	=114	=114	=114	=114
8D\L	.	8dd\L	.	8dd\L	.	2ryy	.	2ryy	.	8dd\L	bi-	2ryy	2ryy
8F#\	.	8ff#\	.	8ff#\	.	.	.	.	.	8ff#\J	.	.	.
8E\	.	8ee\	.	8ee\	.	.	.	.	.	8ee\	-bet	.	.
8D\J	.	8dd\J	.	8dd\J	.	.	.	.	.	8dd\	in	.	.
!	!	!	!	!	!	!	!	!	!	!LO:LB:g=original	!	!	!
=115	=115	=115	=115	=115	=115	=115	=115	=115	=115	=115	=115	=115	=115
!	!	!	!	!	!	!	!	!	!	!LO:TX:a:t=problem:takt słabo czytelny	!	!	!
8G\L	.	8gg\L	.	8gg\L	.	2ryy	.	2ryy	.	8gg\L	vi-	2ryy	2ryy
8B\	.	8b\	.	8cc#X\	.	.	.	.	.	8b\J	.	.	.
8A\	.	8a\	.	8b\	.	.	.	.	.	8a\	.	.	.
8G\J	.	8g\J	.	8g\J	.	.	.	.	.	8g\	-a	.	.
=116	=116	=116	=116	=116	=116	=116	=116	=116	=116	=116	=116	=116	=116
!	!	!LO:TX:a:t=problem:mixed beam	!	!LO:TX:a:t=problem:mixed beam	!	!	!	!	!	!	!	!	!
8d\L	.	8dd\L	.	8dd\L	.	2ryy	.	2ryy	.	8dd\	bi-	2ryy	2ryy
16D\L	.	8d/J	.	8d/J	.	.	.	.	.	8d/	-bet	.	.
16C\JJ	.	.	.	.	.	.	.	.	.	.	.	.	.
8BB/L	.	8r	.	8r	.	.	.	.	.	8r	.	.	.
8GG/J	.	8b\	.	8dd\	.	.	.	.	.	8dd\	prop-	.	.
!	!	!	!	!LO:LB:g=original	!	!	!	!	!	!	!	!	!
=117	=117	=117	=117	=117	=117	=117	=117	=117	=117	=117	=117	=117	=117
8C/L	.	8g/L	.	8ee\L	.	2ryy	.	2ryy	.	(8ee\	-te-	2ryy	2ryy
8C/	.	8g/	.	8ee\	.	.	.	.	.	4cc\	.	.	.
8C/	.	8g/	.	8ee\	.	.	.	.	.	.	.	.	.
8C/J	.	8g/J	.	8ee\J	.	.	.	.	.	8g\)	-re-	.	.
=118	=118	=118	=118	=118	=118	=118	=118	=118	=118	=118	=118	=118	=118
8C/L	.	8g/L	.	8ee\L	.	2ryy	.	2ryy	.	(8g\L	-a	2ryy	2ryy
8C/	.	8g/	.	8ee\	.	.	.	.	.	8gg\J)	.	.	.
8C/	.	8g/	.	8ee\	.	.	.	.	.	8ee\	e-	.	.
8C/J	.	8g/J	.	8ee\J	.	.	.	.	.	8cc\	-xal-	.	.
!	!	!LO:LB:g=original	!	!	!	!	!	!	!	!	!	!	!
=119	=119	=119	=119	=119	=119	=119	=119	=119	=119	=119	=119	=119	=119
8G\L	.	8b\L	.	8dd\L	.	2ryy	.	2ryy	.	(8dd\	-ta-	2ryy	2ryy
8G\	.	8b\	.	8dd\	.	.	.	.	.	4b\	.	.	.
8G\	.	8b\	.	8dd\	.	.	.	.	.	.	.	.	.
8G\J	.	8b\J	.	8dd\J	.	.	.	.	.	8g\)	.	.	.
!LO:LB:g=original	!	!	!	!	!	!	!	!	!	!	!	!	!
=120	=120	=120	=120	=120	=120	=120	=120	=120	=120	=120	=120	=120	=120
8G\L	.	8b\L	.	8dd\L	.	2ryy	.	2ryy	.	(8g\L	.	2ryy	2ryy
8G\	.	8b\	.	8dd\	.	.	.	.	.	8gg\	.	.	.
8G\	.	8b\	.	8dd\	.	.	.	.	.	8dd\	.	.	.
8G\J	.	8b\J	.	8dd\J	.	.	.	.	.	8b\J)	.	.	.
=121	=121	=121	=121	=121	=121	=121	=121	=121	=121	=121	=121	=121	=121
8D\L	.	8a/L	.	8cc\L	.	2ryy	.	2ryy	.	4.cc\	.	2ryy	2ryy
8D\	.	8a/	.	8cc\	.	.	.	.	.	.	.	.	.
8F#\	.	8a/	.	8cc\	.	.	.	.	.	.	.	.	.
8G\J	.	8g/J	.	8b\J	.	.	.	.	.	8b\	-bit	.	.
=122	=122	=122	=122	=122	=122	=122	=122	=122	=122	=122	=122	=122	=122
!	!	!LO:TX:a:t=t	!	!LO:TX:a:t=t	!	!	!	!	!	!LO:TX:a:t=t	!	!	!
8d\L	.	8g/L	.	8b\L	.	2ryy	.	2ryy	.	8b\	ca-	2ryy	2ryy
8D\J	.	8f#/J	.	8a\J	.	.	.	.	.	8a\	-put	.	.
4D\	.	4r	.	4r	.	.	.	.	.	4r	.	.	.
=123	=123	=123	=123	=123	=123	=123	=123	=123	=123	=123	=123	=123	=123
8r	.	8r	.	(16aa\LL	.	2ryy	.	2ryy	.	8cc\	e-	2ryy	2ryy
.	.	.	.	16cc\JJ)	.	.	.	.	.	.	.	.	.
8D\L	.	8f#/L	.	4.cc\	.	.	.	.	.	4.cc\	-xal-	.	.
8E\	.	8g/	.	.	.	.	.	.	.	.	.	.	.
8F#\J	.	8a/J	.	.	.	.	.	.	.	.	.	.	.
=124	=124	=124	=124	=124	=124	=124	=124	=124	=124	=124	=124	=124	=124
8G\L	.	8b\L	.	(16b\LL	.	2ryy	.	2ryy	.	(8b\L	-ta-	2ryy	2ryy
.	.	.	.	16gg\)	.	.	.	.	.	.	.	.	.
8A\J	.	8cc\	.	(16ff#\	.	.	.	.	.	8ff#\J)	.	.	.
.	.	.	.	16aa\JJ)	.	.	.	.	.	.	.	.	.
.	.	.	.	.	.	.	.	.	.	8qqff#/	.	.	.
4B\	.	8dd\J	.	16gg\LL	.	.	.	.	.	4gg\	-bit	.	.
.	.	.	.	16dd\	.	.	.	.	.	.	.	.	.
.	.	8r	.	16b\	.	.	.	.	.	.	.	.	.
.	.	.	.	16g\JJ	.	.	.	.	.	.	.	.	.
=125	=125	=125	=125	=125	=125	=125	=125	=125	=125	=125	=125	=125	=125
8r	.	8r	.	(16aa\LL	.	2ryy	.	2ryy	.	8cc\	e-	2ryy	2ryy
.	.	.	.	16cc\JJ)	.	.	.	.	.	.	.	.	.
8D\L	.	8f#/L	.	4.cc\	.	.	.	.	.	4.cc\	-xal-	.	.
8E\	.	8g/	.	.	.	.	.	.	.	.	.	.	.
8F#\J	.	8a/J	.	.	.	.	.	.	.	.	.	.	.
=126	=126	=126	=126	=126	=126	=126	=126	=126	=126	=126	=126	=126	=126
!LO:TX:a:t=problem:mixed beam	!	!	!	!	!	!	!	!	!	!	!	!	!
8G\L	.	8b\L	.	(16b\LL	.	2ryy	.	2ryy	.	(8b\L	-ta-	2ryy	2ryy
.	.	.	.	16gg\)	.	.	.	.	.	.	.	.	.
8AA/	.	8cc\	.	(16ff#\	.	.	.	.	.	8ff#\J)	.	.	.
.	.	.	.	16aa\JJ)	.	.	.	.	.	.	.	.	.
8BB/	.	8dd\	.	(16gg\LL	.	.	.	.	.	(16gg\LL	.	.	.
.	.	.	.	16dd\)	.	.	.	.	.	16dd\JJ)	.	.	.
8C/J	.	8a\J	.	(16ee\	.	.	.	.	.	(16ee\LL	-bit	.	.
.	.	.	.	16cc\JJ)	.	.	.	.	.	16cc\JJ)	.	.	.
=127	=127	=127	=127	=127	=127	=127	=127	=127	=127	=127	=127	=127	=127
8D/L	.	4g/	.	4b\	.	2ryy	.	2ryy	.	4b\	ca-	2ryy	2ryy
8C/	.	.	.	.	.	.	.	.	.	.	.	.	.
!	!	!LO:TX:a:t=t	!	!LO:TX:a:t=t	!	!	!	!	!	!	!	!	!
8D/	.	4f#/	.	4a\	.	.	.	.	.	4a\	.	.	.
8D/J	.	.	.	.	.	.	.	.	.	.	.	.	.
=128	=128	=128	=128	=128	=128	=128	=128	=128	=128	=128	=128	=128	=128
4GG/	.	8g/L	.	8g/L	.	2ryy	.	2ryy	.	4g\	-put	2ryy	2ryy
.	.	8d/J	.	8d/J	.	.	.	.	.	.	.	.	.
!LO:TX:a:t=Da Capo al signu	!	!LO:TX:a:t=Da Capo ad Signu	!	!LO:TX:a:t=Da Capo ad Sig	!	!	!	!	!	!	!	!	!
4r	.	4G/	.	4G/	.	.	.	.	.	4r	.	.	.
!LO:LB:g=original	!	!LO:LB:g=original	!	!LO:LB:g=original	!	!	!	!	!	!LO:LB:g=original	!	!	!
=129;;	=129	=129	=129	=129	=129	=129	=129	=129	=129	=129	=129	=129	=129
*k[]	*	*k[]	*	*k[]	*	*	*	*	*	*k[]	*	*	*
*M4/4	*	*M4/4	*	*M4/4	*	*M4/4	*	*M4/4	*	*M4/4	*	*M4/4	*M4/4
*met(c)	*	*met(c)	*	*met(c)	*	*met(c)	*	*met(c)	*	*met(c)	*	*met(c)	*met(c)
!	!	!	!	!	!	!	!	!	!	!	!	!	!LO:TX:b:t=Gloria
!LO:TX:b:t=Gloria	!	!LO:TX:a:B:t=Adagio	!	!LO:TX:a:B:t=ada	!LO:DY:t=f	!	!	!	!	!	!	!LO:TX:b:t=Gloria	!
!LO:TX:a:B:t=Adagio	!	!LO:TX:b:t=Gloria	!	!LO:TX:b:t=Gloria	!LO:DY:a	!LO:TX:a:B:t=Adagio	!	!LO:TX:a:B:t=Adagio	!	!	!	!LO:TX:a:B:t=Ada.	!LO:TX:a:B:t=Adagio
4G\	.	4b\	.	4gg\	f	4G\	Glo-	4B\	Glo-	4gg\	Glo-	1r	1r
8G\L	.	8b\L	.	8gg\L	.	8G\	-ri-	8B\	-ri-	8gg\	-ri-	.	.
8G\J	.	8b\J	.	8gg\J	.	8G\	-a	8B\	-a	8gg\	-a	.	.
4A\	.	4cc\	.	4ffn\	.	4A\	Pa-	4c\	Pa-	4ffn\	Pa-	.	.
8A\L	.	8cc\L	.	8ff\L	.	8A\	-tri-	8c\	-tri-	8ff\	-tri-	.	.
8A\J	.	8cc\J	.	8ff\J	.	8A\	-et	8c\	-et	8ff\	-et	.	.
=130	=130	=130	=130	=130	=130	=130	=130	=130	=130	=130	=130	=130	=130
4B\	.	4dd\	.	4ff\	.	4B\	fi-	4d\	fi-	4ff\	Fi-	2r	2r
4G\	.	4dd\	.	4ff\	.	4G\	-li-	4d\	-li-	4ff\	-li-	.	.
4c\	.	4g/	.	4ee\	.	4c\	-o	4G\	-o	4ee\	-o	4r	4r
4C/	.	4ee\	.	4ccc\	.	4C/	et	4G\	et	4ee\	et	4cc\	4ee\
=131	=131	=131	=131	=131	=131	=131	=131	=131	=131	=131	=131	=131	=131
4G\	.	4b\	.	4dd\	.	4G\	spi-	4B\	spi-	4dd\	Spi-	4g/	4dd\
4G\	.	4cc\	.	4ee\	.	4G\	-ri-	4c\	-ri-	4ee\	-ri-	4cc\	4ee\
4G\	.	4dd\	.	4ff\	.	4G\	-tu-	4d\	-tu-	4ff\	-tu-	4dd\	4ff\
4G\	.	4cc\	.	4ee\	.	4G\	-i	4c\	-i	4ee\	-i	4cc\	4ee\
=132	=132	=132	=132	=132	=132	=132	=132	=132	=132	=132	=132	=132	=132
4G\	.	4dd\	.	4ff\	.	4G\	sanc-	4d\	sanc-	4ff\	sanc-	4dd\	4ff\
4F#X\	.	4cc\	.	4ee\	.	4F#X\	.	4c\	.	4ee\	.	4cc\	4ee\
*2\right	*	*2\right	*	*2\right	*	*2\right	*	*2\right	*	*	*	*	*
2G;\	.	2b;\	.	2dd;\	.	2G;\	-to	2B;\	-to	2dd;\	-to	2g;/	2dd;\
=133	=133	=133	=133	=133	=133	=133	=133	=133	=133	=133	=133	=133	=133
!	!	!	!	!	!	!	!	!	!	!	!	!	!LO:TX:a:B:t=Allo
!LO:TX:a:B:t=Allo'	!	!LO:TX:a:B:t=Allo'	!	!	!	!LO:TX:a:B:t=Allo'	!	!LO:TX:a:B:t=Allo'	!	!	!	!LO:TX:a:B:t=Allo'	!
4C\	.	4ee\	.	8ccc\L	.	8C\	Si-	8G\	Si-	8ee\	Si-	4cc\	4ee\
.	.	.	.	8cc\	.	8C\	-cut	8G\	-cut	8ee\	-cut	.	.
4G\	.	8b\L	.	8dd\	.	4G\	e-	4B\	e-	4dd\	e-	4a\	4dd\
.	.	8dd\J	.	8bb\J	.	.	.	.	.	.	.	.	.
4C/	.	4ee\	.	4ccc\	.	4C\	-rat	4c\	-rat	4ee\	-rat	4cc\	4ee\
8r	.	8r	.	8r	.	4r	.	8r	.	8r	.	8r	8r
8C/	.	8e/	.	8g/	.	.	.	8G\	in	8ee\	in	8ee\	8gg\
=134	=134	=134	=134	=134	=134	=134	=134	=134	=134	=134	=134	=134	=134
!	!	!	!	!	!	!LO:TX:a:t=SIC:l:in	!	!	!	!	!	!	!
8C/L	.	4f/	.	4a\	.	4c\	im	4A\	.	4ff\	.	2ff\	2aa\
8C/	.	.	.	.	.	.	.	.	.	.	.	.	.
8C/	.	4a/	.	4cc\	.	4c\	pri-	4A\	prin-	4ff\	prin-	.	.
8C/J	.	.	.	.	.	.	.	.	.	.	.	.	.
8C/L	.	4cc\	.	4ff\	.	4c\	-ci-	4A\	-ci-	4ff\	-ci-	4ff\	4aa\
8C/	.	.	.	.	.	.	.	.	.	.	.	.	.
8C/	.	4ff\	.	4aa\	.	8c\	-pi-	8A\	-pi-	8ff\	-pi-	8ff\L	8aa\L
8C/J	.	.	.	.	.	8c\	-a	8A\	-o	8ff\	-o	8ff\J	8aa\J
=135	=135	=135	=135	=135	=135	=135	=135	=135	=135	=135	=135	=135	=135
8C/L	.	4e/	.	4g/	.	4c\	et	4G/	et	4ee\	et	2ee\	2gg\
8C/	.	.	.	.	.	.	.	.	.	.	.	.	.
8C/	.	4g/	.	4cc\	.	8c\	nunc	8G/	nunc	8ee\	nunc	.	.
8C/J	.	.	.	.	.	8c\	et	8G/	et	8ee\	et	.	.
!	!	!	!	!	!	!	!	!LO:LB:g=original	!	!	!	!	!
8C/L	.	4cc\	.	4ee\	.	4c\	sem-	4G/	sem-	4ee\	sem-	4ee\	4gg\
8C/	.	.	.	.	.	.	.	.	.	.	.	.	.
8C/	.	4ee\	.	4gg\	.	4c\	-per	4G/	-per	4ee\	-per	8ee\L	8gg\L
8C/J	.	.	.	.	.	.	.	.	.	.	.	8ee\J	8gg\J
!	!	!	!	!	!	!LO:LB:g=original	!	!	!	!LO:LB:g=original	!	!	!
=136	=136	=136	=136	=136	=136	=136	=136	=136	=136	=136	=136	=136	=136
8GG/L	.	4d/	.	4f/	.	4G\	et	4F/	et	4dd\	et	2dd\	2ff\
8GG/	.	.	.	.	.	.	.	.	.	.	.	.	.
8GG/	.	4f/	.	4b/	.	4G\	in	4F/	in	4dd\	in	.	.
8GG/J	.	.	.	.	.	.	.	.	.	.	.	.	.
8GG/L	.	4b\	.	4dd\	.	4G\	sae-	4F/	sae-	4dd\	sae-	4dd\	4ff\
8GG/	.	.	.	.	.	.	.	.	.	.	.	.	.
8GG/	.	4dd\	.	4ff\	.	8G\	-cu-	8F/	-cu-	8dd\	-cu-	8dd\L	8ff\L
8GG/J	.	.	.	.	.	8G\	-la	8F/	-la	8dd\	-la	8dd\J	8ff\J
=137	=137	=137	=137	=137	=137	=137	=137	=137	=137	=137	=137	=137	=137
8C\L	.	8cc\L	.	8ee\L	.	8C\	sae-	8G/	sae-	8ee\	sae-	8cc\L	8ee\L
16C\L	.	16ee\L	.	16ccc\L	.	8C\	-cu-	8G/	-cu-	8ee\	-cu-	16cc\L	16ee\L
16C\JJ	.	16ee\JJ	.	16ccc\JJ	.	.	.	.	.	.	.	16cc\JJ	16ee\JJ
16C\LL	.	8ee\L	.	8ccc\L	.	16C\LL	-lo-	8G/	-lo-	8ee\	-lo-	8cc\L	8ee\L
16D\	.	.	.	.	.	16D\JJ	.	.	.	.	.	.	.
16E\	.	8ee\J	.	8ccc\J	.	16E\LL	-rum	8c\	-rum	8ee\	-rum	8cc\J	8ee\J
16F\JJ	.	.	.	.	.	16F\JJ	.	.	.	.	.	.	.
!LO:TX:a:t=problem:mixed beam	!	!	!	!	!	!	!	!	!	!	!	!	!
8G\L	.	8dd\L	.	8bb\L	.	8G\	a-	8B\	a-	8dd\	a-	8g/L	8dd\L
8GG/J	.	8dd\J	.	8bb\J	.	8GG/	-men	8B\	-men	8dd\	-men	8g/J	8dd\J
4r	.	8r	.	8r	.	4r	.	8r	.	8r	.	4r	4r
.	.	8gg\	.	8gg\	.	.	.	8g\	a-	8gg\	a-	.	.
=138	=138	=138	=138	=138	=138	=138	=138	=138	=138	=138	=138	=138	=138
1G	.	8gg\L	.	[4aa\	.	1G	a-	8g\L	.	4aa\	.	1r	1r
.	.	(16ff\L	.	.	.	.	.	16f\L	.	.	.	.	.
.	.	16ee\JJ)	.	.	.	.	.	16e\JJ	.	.	.	.	.
.	.	[4ff\	.	8aa\L]	.	.	.	4f\	.	8aa\L	.	.	.
.	.	.	.	(16gg\L	.	.	.	.	.	16gg\L	.	.	.
.	.	.	.	16ff\JJ)	.	.	.	.	.	16ff\JJ	.	.	.
.	.	8ff\L]	.	[4gg\	.	.	.	8f\L	.	4gg\	.	.	.
.	.	(16ee\L	.	.	.	.	.	16e\L	.	.	.	.	.
.	.	16dd\JJ)	.	.	.	.	.	16d\JJ	.	.	.	.	.
.	.	[4ee\	.	8gg\L]	.	.	.	4e\	.	8gg\L	.	.	.
.	.	.	.	(16ff\L	.	.	.	.	.	16ff\L	.	.	.
.	.	.	.	16ee\JJ)	.	.	.	.	.	16ee\JJ	.	.	.
!LO:LB:g=original	!	!LO:LB:g=original	!	!LO:LB:g=original	!	!	!	!	!	!	!	!	!
=139	=139	=139	=139	=139	=139	=139	=139	=139	=139	=139	=139	=139	=139
2G\	.	8ee\L]	.	[4ff\	.	2G\	.	8e\L	.	4ff\	.	2r	2r
.	.	16dd\L	.	.	.	.	.	16d\L	.	.	.	.	.
.	.	16cc\JJ	.	.	.	.	.	16c\JJ	.	.	.	.	.
.	.	4dd\	.	8ff\L]	.	.	.	4d\	.	8ff\L	.	.	.
.	.	.	.	(16ee\L	.	.	.	.	.	16ee\L	.	.	.
.	.	.	.	16dd\JJ)	.	.	.	.	.	16dd\JJ	.	.	.
!LO:TX:a:t=problem:mixed beam	!	!	!	!	!	!	!	!	!	!	!	!	!
8C\L	.	4cc\	.	8ee\L	.	4C/	-men-	4c\	-men	4ee\	-men	4cc\	4ee\
8E\	.	.	.	8ccc\J	.	.	.	.	.	.	.	.	.
8G\	.	8dd\L	.	(16bb\LL	.	8G\	-a-	8B\	a-	8dd\	a-	8r	8r
.	.	.	.	16aa\)	.	.	.	.	.	.	.	.	.
8GG/J	.	8b\J	.	(16gg\	.	8GG/	-men	8d\	-men	8ff\	-men	16g/LL	16dd\LL
.	.	.	.	16ff\JJ)	.	.	.	.	.	.	.	16g/JJ	16dd\JJ
!	!	!	!	!	!	!	!	!	!	!	!	!LO:LB:g=original	!
=140	=140	=140	=140	=140	=140	=140	=140	=140	=140	=140	=140	=140	=140
!LO:TX:a:t=problem:mixed beam	!	!	!	!	!	!	!	!	!	!	!	!	!
8C\L	.	8cc\L	.	8ee\L	.	(4C\	a-	(4c\	a-	(4ee\	a-	4cc\	4ee\
8E\	.	8ee\	.	8ccc\J	.	.	.	.	.	.	.	.	.
8G\	.	8dd\	.	(16bb\LL	.	8G\)	.	8B\)	.	8dd\)	.	8r	8r
.	.	.	.	16aa\)	.	.	.	.	.	.	.	.	.
8GG/J	.	8b\J	.	(16gg\	.	8GG/	-men	8d\	-men	8ff\	-men	16g/LL	16dd\LL
.	.	.	.	16ff\JJ)	.	.	.	.	.	.	.	16g/JJ	16dd\JJ
!LO:TX:a:t=problem:mixed beam	!	!	!	!	!	!LO:TX:a:t=problem:mixed beam	!	!	!	!	!	!	!LO:LB:g=original
8C\L	.	8cc\L	.	8ee\L	.	8C\L	a-	(4c\	a-	4ee\	a-	4cc\	4ee\
8E\	.	8ee\	.	8ccc\	.	8E\	.	.	.	.	.	.	.
8G\	.	8b\	.	8dd\	.	8G\	.	4B\)	.	4dd\	.	8g\L	8dd\L
8GG/J	.	8dd\J	.	8bb\J	.	8GG/J	.	.	.	.	.	8g\J	8dd\J
!	!	!	!	!	!	!	!	!LO:LB:g=original	!	!	!	!	!
=141	=141	=141	=141	=141	=141	=141	=141	=141	=141	=141	=141	=141	=141
4C/	.	4ee\	.	4ccc\	.	4C\	-men	4c\	-men	4ee\	-men	4cc\	4ee\
4r	.	4b\	.	4dd\	.	4G\	a-	4B\	a-	4dd\	a-	4r	4r
4r	.	4cc\	.	4ee\	.	4c\	-men	4c\	-men	4ee\	-men	4r	4r
4G\	.	4dd\	.	4bb\	.	4G\	a-	4B\	a-	4dd\	a-	4g/	4dd\
=142	=142	=142	=142	=142	=142	=142	=142	=142	=142	=142	=142	=142	=142
4C/	.	4ee\	.	4ccc\	.	4C/	-men	4c\	-men	4ee\	-men	4cc\	4ee\
4r	.	4r	.	4r	.	4r	.	4r	.	4r	.	4r	4r
2r	.	2r	.	2r	.	2r	.	2r	.	2r	.	2r	2r
==	==	==	==	==	==	==	==	==	==	==	==	==	==
*-	*-	*-	*-	*-	*-	*-	*-	*-	*-	*-	*-	*-	*-
!!!system-decoration: [(g1)][(g2)][(g3)]{g4}
!!!RDF**kern: >=above
!!!RDF**kern: <= below
!!!AIN: 2 empty 1 tenor 2 tromp 2 violn 1 vox
!!!ENC: Anna Matuszewska
!!!END: 2020-08-10
